; generated by PrusaSlicer 2.7.2+linux-x64-GTK3 on 2024-03-10 at 04:49:32 UTC


;
;

;
;
; 

; external perimeters extrusion width = 0.40mm
; perimeters extrusion width = 0.40mm
; infill extrusion width = 0.64mm
; solid infill extrusion width = 0.56mm
; top infill extrusion width = 0.40mm
; first layer extrusion width = 0.50mm



; Pre-Processed for Cancel-Object support by preprocess_cancellation v0.2.0
; 1 known objects
EXCLUDE_OBJECT_DEFINE NAME=Bottom_bar_stl_id_0_copy_0 CENTER=107.968,107.363 POLYGON=[[4.904,4.872],[4.904,212.67],[212.662,212.67],[212.662,4.872]]
M73 P0 R200

; printing object Bottom_bar.stl id:0 copy 0
EXCLUDE_OBJECT_START NAME=Bottom_bar_stl_id_0_copy_0
; stop printing object Bottom_bar.stl id:0 copy 0
EXCLUDE_OBJECT_END NAME=Bottom_bar_stl_id_0_copy_0

;TYPE:Custom
M104 S0 ; Stops PS/SS from sending temp waits separately
M140 S0
M117
PRINT_START BED=60 HOTEND=230
; PURGE_LINE

;; If you are passing variables to PRINT_START, comment out above line and uncomment the last 3 lines instead. (I already did this)
;; Guide: https://github.com/AndrewEllis93/Print-Tuning-Guide/blob/main/articles/passing_slicer_variables.md
;; Make sure the variable names match (for example if you use "EXTRUDER" instead of "HOTEND")
G21 ; set units to millimeters
G90 ; use absolute coordinates
M83 ; use relative distances for extrusion
; Filament gcode
M107
;LAYER_CHANGE
;Z:0.26
;HEIGHT:0.26
G1 E-.7 F2400
G1 Z.26 F18000
G1 X98.166 Y98.167
G1 Z.26
G1 E.7 F2400
M204 S2000
;TYPE:Skirt/Brim
;WIDTH:0.5
G1 F1800
G1 X191.975 Y4.36 E6.37007
G1 X192.13 Y4.221 E.01
G1 X192.305 Y4.087 E.01058
G1 X192.515 Y3.946 E.01215
G1 X192.706 Y3.836 E.01058
G1 X192.882 Y3.751 E.00938
G1 X193.266 Y3.592 E.01996
G1 X193.478 Y3.521 E.01074
G1 X193.625 Y3.482 E.0073
G1 X193.892 Y3.428 E.01308
G1 X194.155 Y3.395 E.01273
G1 X194.318 Y3.387 E.00784
G1 X194.879 Y3.387 E.02694
G1 X195.056 Y3.397 E.00851
G1 X195.238 Y3.418 E.0088
G1 X195.622 Y3.496 E.01881
G1 X195.883 Y3.577 E.01312
G1 X196.305 Y3.75 E.0219
G1 X196.518 Y3.855 E.0114
G1 X196.697 Y3.961 E.00999
G1 X196.955 Y4.138 E.01502
G1 X197.205 Y4.35 E.01574
G1 X213.169 Y20.315 E1.08408
G1 X213.284 Y20.442 E.00823
G1 X213.453 Y20.658 E.01317
G1 X213.578 Y20.845 E.0108
G1 X213.695 Y21.049 E.01129
G1 X213.786 Y21.236 E.00999
G1 X213.935 Y21.596 E.01871
G1 X214.035 Y21.908 E.01573
G1 X214.103 Y22.225 E.01557
G1 X214.133 Y22.459 E.01133
G1 X214.145 Y22.667 E.01
G1 X214.145 Y23.205 E.02583
G1 X214.136 Y23.377 E.00827
G1 X214.101 Y23.657 E.01355
G1 X214.053 Y23.894 E.01161
G1 X214.015 Y24.038 E.00715
G1 X213.934 Y24.28 E.01225
G1 X213.787 Y24.636 E.01849
G1 X213.713 Y24.792 E.00829
G1 X213.579 Y25.029 E.01307
G1 X213.454 Y25.215 E.01076
G1 X213.31 Y25.402 E.01133
G1 X213.172 Y25.557 E.00996
G1 X25.546 Y213.18 E12.74072
G1 X25.407 Y213.305 E.00898
G1 X25.264 Y213.419 E.00878
G1 X25.037 Y213.574 E.0132
G1 X24.902 Y213.656 E.00758
G1 X24.641 Y213.788 E.01404
G1 X24.24 Y213.953 E.02082
G1 X23.94 Y214.047 E.0151
G1 X23.616 Y214.114 E.01589
G1 X23.406 Y214.141 E.01017
G1 X23.198 Y214.153 E.01
G1 X22.66 Y214.153 E.02583
G1 X22.487 Y214.144 E.00832
G1 X22.207 Y214.109 E.01355
G1 X21.97 Y214.061 E.01161
G1 X21.826 Y214.023 E.00715
G1 X21.584 Y213.942 E.01225
G1 X21.228 Y213.795 E.01849
G1 X21.072 Y213.721 E.00829
G1 X20.835 Y213.587 E.01307
G1 X20.649 Y213.462 E.01076
G1 X20.462 Y213.318 E.01133
G1 X20.307 Y213.18 E.00996
G1 X4.349 Y197.222 E1.08363
G1 X4.211 Y197.067 E.00996
G1 X4.086 Y196.906 E.00979
G1 X3.927 Y196.668 E.01374
G1 X3.826 Y196.49 E.00983
G1 X3.746 Y196.326 E.00876
G1 X3.587 Y195.944 E.01987
G1 X3.486 Y195.632 E.01575
G1 X3.419 Y195.315 E.01556
G1 X3.385 Y195.049 E.01288
G1 X3.376 Y194.873 E.00846
G1 X3.377 Y194.315 E.02679
G1 X3.385 Y194.163 E.00731
G1 X3.42 Y193.883 E.01355
G1 X3.498 Y193.531 E.01731
G1 X3.587 Y193.26 E.0137
G1 X3.735 Y192.904 E.01851
G1 X3.808 Y192.748 E.00827
G1 X3.943 Y192.511 E.0131
G1 X4.067 Y192.324 E.01077
G1 X4.211 Y192.138 E.01129
G1 X4.349 Y191.983 E.00996
G1 X98.124 Y98.21 E6.36776
M204 S4000
M204 S10000
G1 X98.124 Y98.21 F18000
G1 X98.438 Y98.524
M204 S2000
G1 F1800
G1 X192.285 Y4.678 E6.37268
G1 X192.408 Y4.568 E.00792
G1 X192.57 Y4.443 E.00983
G1 X192.742 Y4.328 E.00993
G1 X192.92 Y4.226 E.00985
G1 X193.069 Y4.154 E.00795
G1 X193.414 Y4.011 E.01793
G1 X193.612 Y3.945 E.01002
G1 X193.732 Y3.913 E.00596
G1 X193.955 Y3.867 E.01093
G1 X194.201 Y3.837 E.0119
G1 X194.333 Y3.831 E.00634
G1 X194.872 Y3.831 E.02588
G1 X195.023 Y3.84 E.00726
G1 X195.176 Y3.858 E.0074
G1 X195.507 Y3.925 E.01622
G1 X195.635 Y3.962 E.0064
G1 X195.734 Y3.996 E.00503
G1 X196.128 Y4.157 E.02044
G1 X196.313 Y4.249 E.00992
G1 X196.455 Y4.333 E.00792
G1 X196.609 Y4.436 E.0089
G1 X196.688 Y4.493 E.00468
G1 X196.897 Y4.671 E.01318
G1 X212.852 Y20.626 E1.08343
G1 X212.94 Y20.723 E.00629
G1 X213.088 Y20.912 E.01153
G1 X213.204 Y21.085 E.01
G1 X213.306 Y21.263 E.00985
G1 X213.378 Y21.412 E.00795
G1 X213.521 Y21.758 E.01798
G1 X213.605 Y22.019 E.01317
G1 X213.665 Y22.304 E.01398
G1 X213.692 Y22.508 E.00988
G1 X213.701 Y22.673 E.00793
G1 X213.701 Y23.199 E.02526
G1 X213.695 Y23.331 E.00634
G1 X213.664 Y23.577 E.01191
G1 X213.591 Y23.906 E.01618
G1 X213.521 Y24.118 E.01072
G1 X213.378 Y24.462 E.01789
G1 X213.322 Y24.581 E.00632
G1 X213.204 Y24.789 E.01148
G1 X213.089 Y24.962 E.00997
G1 X212.964 Y25.124 E.00983
G1 X212.854 Y25.247 E.00792
G1 X25.236 Y212.862 E12.74017
G1 X25.126 Y212.962 E.00714
G1 X24.994 Y213.066 E.00807
G1 X24.792 Y213.204 E.01175
G1 X24.692 Y213.264 E.0056
G1 X24.463 Y213.381 E.01235
G1 X24.093 Y213.534 E.01923
G1 X23.828 Y213.617 E.01333
G1 X23.552 Y213.675 E.01354
G1 X23.358 Y213.699 E.00939
G1 X23.191 Y213.709 E.00803
G1 X22.665 Y213.709 E.02526
G1 X22.533 Y213.703 E.00634
G1 X22.287 Y213.672 E.01191
G1 X21.958 Y213.599 E.01618
G1 X21.746 Y213.529 E.01072
G1 X21.403 Y213.386 E.01784
G1 X21.283 Y213.33 E.00636
G1 X21.075 Y213.212 E.01148
G1 X20.902 Y213.097 E.00997
G1 X20.74 Y212.972 E.00983
G1 X20.617 Y212.862 E.00792
G1 X4.668 Y196.912 E1.08306
G1 X4.557 Y196.789 E.00796
G1 X4.441 Y196.64 E.00907
G1 X4.309 Y196.442 E.01143
G1 X4.216 Y196.277 E.00909
G1 X4.149 Y196.139 E.00737
G1 X4 Y195.782 E.01857
G1 X3.916 Y195.521 E.01317
G1 X3.856 Y195.236 E.01398
G1 X3.829 Y195.017 E.0106
G1 X3.821 Y194.867 E.00721
G1 X3.821 Y194.331 E.02574
G1 X3.827 Y194.209 E.00587
G1 X3.857 Y193.963 E.0119
G1 X3.926 Y193.648 E.01548
G1 X4.001 Y193.422 E.01143
G1 X4.143 Y193.078 E.01787
G1 X4.199 Y192.959 E.00632
G1 X4.317 Y192.75 E.01152
G1 X4.432 Y192.578 E.00993
G1 X4.557 Y192.416 E.00983
G1 X4.668 Y192.292 E.00799
G1 X98.395 Y98.566 E6.36454
M204 S4000
M204 S10000
G1 X98.395 Y98.566 F18000
G1 X98.709 Y98.88
M204 S2000
G1 F1800
G1 X192.594 Y4.997 E6.37523
G1 X192.687 Y4.914 E.00599
G1 X192.824 Y4.807 E.00835
G1 X192.982 Y4.702 E.00911
G1 X193.132 Y4.616 E.0083
G1 X193.244 Y4.562 E.00597
G1 X193.576 Y4.425 E.01725
G1 X193.745 Y4.369 E.00855
G1 X194.035 Y4.304 E.01427
G1 X194.245 Y4.279 E.01015
G1 X194.865 Y4.275 E.02977
G1 X195.115 Y4.298 E.01205
G1 X195.392 Y4.355 E.01358
G1 X195.584 Y4.414 E.00964
G1 X195.951 Y4.565 E.01906
G1 X196.107 Y4.643 E.00837
G1 X196.214 Y4.706 E.00596
G1 X196.42 Y4.847 E.01199
G1 X196.589 Y4.991 E.01066
G1 X212.534 Y20.936 E1.08275
G1 X212.597 Y21.004 E.00445
G1 X212.724 Y21.166 E.00988
G1 X212.83 Y21.325 E.00918
G1 X212.916 Y21.475 E.0083
G1 X212.97 Y21.587 E.00597
G1 X213.107 Y21.919 E.01725
G1 X213.175 Y22.13 E.01064
G1 X213.228 Y22.383 E.01241
G1 X213.25 Y22.555 E.00833
G1 X213.257 Y22.679 E.00596
G1 X213.252 Y23.287 E.02919
G1 X213.227 Y23.497 E.01015
G1 X213.167 Y23.774 E.01361
G1 X213.107 Y23.956 E.0092
G1 X212.93 Y24.372 E.02171
G1 X212.83 Y24.55 E.0098
G1 X212.724 Y24.708 E.00914
G1 X212.618 Y24.845 E.00832
G1 X212.535 Y24.938 E.00599
G1 X24.927 Y212.543 E12.7395
G1 X24.835 Y212.626 E.00595
G1 X24.726 Y212.712 E.00667
G1 X24.481 Y212.873 E.01408
G1 X24.284 Y212.975 E.01065
G1 X23.945 Y213.115 E.01761
G1 X23.718 Y213.187 E.01143
G1 X23.487 Y213.235 E.01133
G1 X23.31 Y213.258 E.00857
G1 X23.185 Y213.265 E.00601
G1 X22.577 Y213.26 E.02919
G1 X22.367 Y213.235 E.01015
G1 X22.09 Y213.175 E.01361
G1 X21.909 Y213.115 E.00916
G1 X21.493 Y212.938 E.02171
G1 X21.314 Y212.838 E.00985
G1 X21.156 Y212.732 E.00914
G1 X21.019 Y212.626 E.00832
G1 X20.927 Y212.543 E.00595
G1 X4.986 Y196.603 E1.08245
G1 X4.903 Y196.51 E.00599
G1 X4.797 Y196.373 E.00832
G1 X4.691 Y196.215 E.00914
G1 X4.606 Y196.065 E.00828
G1 X4.552 Y195.953 E.00597
G1 X4.414 Y195.62 E.01731
G1 X4.346 Y195.409 E.01064
G1 X4.293 Y195.157 E.01236
G1 X4.272 Y194.985 E.00832
G1 X4.265 Y194.861 E.00596
G1 X4.269 Y194.252 E.02924
G1 X4.294 Y194.043 E.01011
G1 X4.355 Y193.766 E.01362
G1 X4.414 Y193.584 E.00919
G1 X4.591 Y193.168 E.02171
G1 X4.691 Y192.99 E.0098
G1 X4.797 Y192.831 E.00918
G1 X4.903 Y192.695 E.00828
G1 X4.986 Y192.602 E.00599
G1 X98.667 Y98.923 E6.36138
M204 S4000
M204 S10000
G1 X98.667 Y98.923 F18000
M73 P0 R199
G1 X98.981 Y99.237
M204 S2000
G1 F1800
G1 X192.905 Y5.315 E6.37788
G1 X193.078 Y5.172 E.01078
G1 X193.222 Y5.076 E.00831
G1 X193.42 Y4.97 E.01078
G1 X193.738 Y4.838 E.01653
G1 X193.876 Y4.793 E.00697
G1 X194.115 Y4.742 E.01173
G1 X194.341 Y4.719 E.01091
G1 X194.932 Y4.724 E.02838
G1 X195.054 Y4.738 E.0059
G1 X195.277 Y4.784 E.01093
G1 X195.377 Y4.813 E.005
G1 X195.774 Y4.972 E.02053
G1 X195.899 Y5.036 E.00674
G1 X196.108 Y5.17 E.01192
G1 X196.282 Y5.312 E.01078
G1 X212.254 Y21.288 E1.08472
G1 X212.36 Y21.421 E.00817
G1 X212.456 Y21.564 E.00827
G1 X212.525 Y21.687 E.00677
G1 X212.693 Y22.081 E.02057
G1 X212.745 Y22.243 E.00817
G1 X212.791 Y22.461 E.0107
G1 X212.812 Y22.685 E.0108
G1 X212.81 Y23.245 E.02689
G1 X212.79 Y23.417 E.00831
G1 X212.742 Y23.644 E.01114
G1 X212.693 Y23.794 E.00758
G1 X212.532 Y24.175 E.01986
G1 X212.456 Y24.31 E.00744
G1 X212.36 Y24.454 E.00831
G1 X212.273 Y24.565 E.00677
G1 X212.217 Y24.628 E.00405
G1 X24.617 Y212.225 E12.73895
G1 X24.457 Y212.358 E.00999
G1 X24.257 Y212.49 E.01151
G1 X24.106 Y212.568 E.00816
G1 X23.783 Y212.701 E.01677
G1 X23.61 Y212.756 E.00872
G1 X23.406 Y212.798 E.01
G1 X23.18 Y212.82 E.0109
G1 X22.619 Y212.818 E.02694
G1 X22.447 Y212.798 E.00831
G1 X22.22 Y212.75 E.01114
G1 X22.07 Y212.701 E.00758
G1 X21.689 Y212.54 E.01986
G1 X21.554 Y212.464 E.00744
G1 X21.41 Y212.368 E.00831
G1 X21.299 Y212.281 E.00677
G1 X21.237 Y212.225 E.00401
G1 X5.304 Y196.293 E1.0819
G1 X5.248 Y196.23 E.00405
G1 X5.162 Y196.119 E.00674
G1 X5.065 Y195.975 E.00834
G1 X4.996 Y195.853 E.00673
G1 X4.828 Y195.459 E.02057
G1 X4.776 Y195.297 E.00817
G1 X4.731 Y195.079 E.01069
G1 X4.709 Y194.855 E.01081
G1 X4.711 Y194.295 E.02689
G1 X4.731 Y194.122 E.00836
G1 X4.779 Y193.896 E.01109
G1 X4.828 Y193.746 E.00758
G1 X4.99 Y193.365 E.01988
G1 X5.065 Y193.229 E.00746
G1 X5.162 Y193.085 E.00834
G1 X5.248 Y192.975 E.0067
G1 X5.304 Y192.912 E.00405
G1 X98.939 Y99.279 E6.35825
M204 S4000
M204 S10000
G1 X98.939 Y99.279 F18000
G1 X99.253 Y99.594
M204 S2000
G1 F1800
G1 X193.215 Y5.633 E6.38049
G1 X193.332 Y5.536 E.0073
G1 X193.461 Y5.45 E.00744
G1 X193.554 Y5.398 E.00512
G1 X193.9 Y5.252 E.01803
G1 X194.006 Y5.218 E.00535
G1 X194.194 Y5.179 E.00922
G1 X194.314 Y5.165 E.0058
G1 X194.852 Y5.164 E.02583
G1 X194.993 Y5.178 E.0068
G1 X195.162 Y5.213 E.00829
G1 X195.281 Y5.249 E.00597
G1 X195.595 Y5.379 E.01632
G1 X195.729 Y5.451 E.0073
G1 X195.857 Y5.536 E.00738
G1 X195.974 Y5.632 E.00727
G1 X211.922 Y21.582 E1.08302
G1 X211.996 Y21.675 E.00571
G1 X212.081 Y21.803 E.00738
G1 X212.133 Y21.896 E.00512
G1 X212.279 Y22.242 E.01803
G1 X212.316 Y22.356 E.00575
G1 X212.353 Y22.539 E.00896
G1 X212.368 Y22.69 E.00729
G1 X212.367 Y23.218 E.02535
G1 X212.353 Y23.338 E.0058
G1 X212.314 Y23.526 E.00922
G1 X212.279 Y23.632 E.00536
G1 X212.139 Y23.967 E.01743
G1 X212.081 Y24.072 E.00576
G1 X211.996 Y24.2 E.00738
G1 X211.93 Y24.283 E.00509
G1 X24.307 Y211.907 E12.74065
G1 X24.189 Y212.004 E.00733
G1 X24.033 Y212.106 E.00895
G1 X23.927 Y212.161 E.00573
G1 X23.622 Y212.287 E.01585
G1 X23.504 Y212.325 E.00595
G1 X23.327 Y212.361 E.00867
G1 X23.174 Y212.376 E.00738
G1 X22.646 Y212.375 E.02535
G1 X22.526 Y212.361 E.0058
G1 X22.339 Y212.322 E.00917
G1 X22.232 Y212.287 E.00541
G1 X21.897 Y212.147 E.01743
G1 X21.792 Y212.089 E.00576
G1 X21.664 Y212.004 E.00738
G1 X21.581 Y211.938 E.00509
G1 X5.592 Y195.948 E1.08577
G1 X5.526 Y195.865 E.00509
G1 X5.44 Y195.736 E.00744
G1 X5.388 Y195.643 E.00512
G1 X5.242 Y195.298 E.01799
G1 X5.206 Y195.184 E.00574
G1 X5.168 Y195.001 E.00897
G1 X5.153 Y194.85 E.00729
G1 X5.155 Y194.322 E.02535
G1 X5.168 Y194.202 E.0058
G1 X5.207 Y194.014 E.00922
G1 X5.242 Y193.908 E.00536
G1 X5.382 Y193.572 E.01748
G1 X5.44 Y193.468 E.00572
G1 X5.526 Y193.34 E.0074
G1 X5.592 Y193.256 E.00513
G1 X99.211 Y99.637 E6.35724
M204 S4000
M204 S10000
G1 X99.211 Y99.637 F18000
G1 X99.524 Y99.95
M204 S2000
G1 F1800
G1 X193.525 Y5.95 E6.38314
G1 X193.588 Y5.9 E.00386
G1 X193.761 Y5.791 E.00982
G1 X194.06 Y5.667 E.01554
G1 X194.123 Y5.647 E.00317
G1 X194.273 Y5.616 E.00735
G1 X194.343 Y5.608 E.00338
G1 X194.837 Y5.608 E.02372
G1 X194.917 Y5.616 E.00386
G1 X195.116 Y5.662 E.00981
G1 X195.416 Y5.786 E.01559
G1 X195.487 Y5.823 E.00384
G1 X195.605 Y5.902 E.00682
G1 X195.667 Y5.953 E.00385
G1 X211.581 Y21.868 E1.08068
G1 X211.632 Y21.93 E.00385
G1 X211.706 Y22.042 E.00645
G1 X211.745 Y22.112 E.00385
G1 X211.865 Y22.403 E.01511
G1 X211.886 Y22.471 E.00342
G1 X211.916 Y22.615 E.00706
G1 X211.924 Y22.695 E.00386
G1 X211.923 Y23.189 E.02372
G1 X211.916 Y23.259 E.00338
G1 X211.885 Y23.409 E.00735
G1 X211.865 Y23.472 E.00317
G1 X211.741 Y23.771 E.01554
G1 X211.706 Y23.833 E.00342
G1 X211.588 Y24 E.00982
G1 X23.996 Y211.589 E12.73841
G1 X23.934 Y211.64 E.00385
G1 X23.819 Y211.717 E.00665
G1 X23.748 Y211.754 E.00384
G1 X23.461 Y211.873 E.01492
G1 X23.398 Y211.893 E.00317
G1 X23.248 Y211.924 E.00735
G1 X23.169 Y211.932 E.00381
G1 X22.675 Y211.932 E.02372
G1 X22.605 Y211.924 E.00338
G1 X22.455 Y211.893 E.00735
G1 X22.392 Y211.873 E.00317
G1 X22.093 Y211.749 E.01554
G1 X22.031 Y211.714 E.00342
G1 X21.864 Y211.596 E.00982
G1 X5.934 Y195.665 E1.08177
G1 X5.815 Y195.498 E.00985
G1 X5.781 Y195.436 E.0034
G1 X5.656 Y195.137 E.01556
G1 X5.633 Y195.06 E.00386
G1 X5.606 Y194.925 E.00661
G1 X5.597 Y194.845 E.00387
G1 X5.598 Y194.351 E.02372
G1 X5.606 Y194.281 E.00338
G1 X5.636 Y194.131 E.00735
G1 X5.656 Y194.068 E.00317
G1 X5.781 Y193.769 E.01556
G1 X5.815 Y193.707 E.0034
G1 X5.934 Y193.54 E.00985
G1 X99.482 Y99.993 E6.35238
M204 S4000
M204 S10000
G1 X99.482 Y99.993 F18000
M73 P0 R198
G1 X99.796 Y100.307
M204 S2000
G1 F1800
G1 X193.828 Y6.276 E6.38525
G1 X193.955 Y6.191 E.00734
M73 P1 R198
G1 X194.24 Y6.075 E.01477
G1 X194.369 Y6.052 E.00629
G1 X194.842 Y6.054 E.02271
G1 X194.97 Y6.082 E.00629
G1 X195.235 Y6.191 E.01376
G1 X195.362 Y6.276 E.00734
G1 X211.256 Y22.17 E1.07929
G1 X211.341 Y22.297 E.00734
G1 X211.45 Y22.562 E.01376
G1 X211.48 Y22.712 E.00735
G1 X211.48 Y23.163 E.02166
G1 X211.456 Y23.292 E.0063
G1 X211.341 Y23.577 E.01476
G1 X211.256 Y23.704 E.00734
G1 X23.694 Y211.264 E12.73641
G1 X23.567 Y211.349 E.00734
G1 X23.302 Y211.458 E.01376
G1 X23.153 Y211.488 E.0073
G1 X22.701 Y211.488 E.0217
G1 X22.572 Y211.464 E.0063
G1 X22.287 Y211.349 E.01476
G1 X22.16 Y211.264 E.00734
G1 X6.266 Y195.369 E1.07932
G1 X6.181 Y195.242 E.00734
G1 X6.071 Y194.978 E.01373
G1 X6.042 Y194.828 E.00734
G1 X6.042 Y194.377 E.02166
G1 X6.065 Y194.248 E.00629
G1 X6.181 Y193.962 E.01482
G1 X6.266 Y193.835 E.00734
G1 X99.754 Y100.349 E6.34827
M204 S4000
M204 S10000
G1 X99.754 Y100.349 F18000
G1 X100.068 Y100.663
M204 S2000
G1 F1800
G1 X194.119 Y6.613 E6.38654
G1 X194.155 Y6.589 E.00208
G1 X194.359 Y6.505 E.01059
G1 X194.402 Y6.496 E.00211
G1 X194.788 Y6.496 E.01853
G1 X194.831 Y6.505 E.00211
G1 X195.034 Y6.589 E.01055
G1 X195.071 Y6.613 E.00212
G1 X210.918 Y22.461 E1.07613
G1 X210.943 Y22.498 E.00214
G1 X211.027 Y22.701 E.01055
G1 X211.036 Y22.744 E.00211
G1 X211.036 Y23.13 E.01853
G1 X211.027 Y23.173 E.00211
G1 X210.943 Y23.377 E.01059
G1 X210.918 Y23.413 E.0021
G1 X23.403 Y210.926 E12.73321
G1 X23.366 Y210.951 E.00214
G1 X23.163 Y211.035 E.01055
