; generated by PrusaSlicer 2.7.2+linux-x64-GTK3 on 2024-03-10 at 06:44:37 UTC


;
;

;
;
; 

; external perimeters extrusion width = 0.40mm
; perimeters extrusion width = 0.40mm
; infill extrusion width = 0.64mm
; solid infill extrusion width = 0.56mm
; top infill extrusion width = 0.40mm
; first layer extrusion width = 0.50mm



; Pre-Processed for Cancel-Object support by preprocess_cancellation v0.2.0
; 1 known objects
EXCLUDE_OBJECT_DEFINE NAME=Middle_Bar_stl_id_0_copy_0 CENTER=112.351,112.453 POLYGON=[[0.485,0.485],[0.485,222.515],[222.515,222.515],[222.515,0.485]]
M73 P0 R202

; printing object Middle_Bar.stl id:0 copy 0
EXCLUDE_OBJECT_START NAME=Middle_Bar_stl_id_0_copy_0
; stop printing object Middle_Bar.stl id:0 copy 0
EXCLUDE_OBJECT_END NAME=Middle_Bar_stl_id_0_copy_0

;TYPE:Custom
M104 S0 ; Stops PS/SS from sending temp waits separately
M140 S0
M117
PRINT_START BED=60 HOTEND=230
; PURGE_LINE

;; If you are passing variables to PRINT_START, comment out above line and uncomment the last 3 lines instead. (I already did this)
;; Guide: https://github.com/AndrewEllis93/Print-Tuning-Guide/blob/main/articles/passing_slicer_variables.md
;; Make sure the variable names match (for example if you use "EXTRUDER" instead of "HOTEND")
G21 ; set units to millimeters
G90 ; use absolute coordinates
M83 ; use relative distances for extrusion
; Filament gcode
M107
;LAYER_CHANGE
;Z:0.26
;HEIGHT:0.26
G1 E-.7 F2400
G1 Z.26 F18000
G1 X16.639 Y16.639
G1 Z.26
G1 E.7 F2400
M204 S2000
;TYPE:Skirt/Brim
;WIDTH:0.5
G1 F1800
G1 X31.65 Y1.627 E1.01936
G1 X31.713 Y1.576 E.00389
G1 X31.886 Y1.468 E.00979
G1 X32.185 Y1.343 E.01556
G1 X32.248 Y1.323 E.00317
G1 X32.398 Y1.293 E.00735
G1 X32.468 Y1.285 E.00338
G1 X32.972 Y1.285 E.0242
G1 X33.173 Y1.319 E.00979
G1 X33.241 Y1.338 E.00339
G1 X33.541 Y1.462 E.01559
G1 X33.612 Y1.5 E.00387
G1 X33.73 Y1.579 E.00682
G1 X33.792 Y1.63 E.00385
G1 X221.373 Y189.211 E12.73776
G1 X221.424 Y189.273 E.00385
G1 X221.5 Y189.388 E.00662
G1 X221.538 Y189.459 E.00387
G1 X221.657 Y189.746 E.01492
G1 X221.68 Y189.823 E.00386
G1 X221.707 Y189.958 E.00661
G1 X221.715 Y190.028 E.00338
G1 X221.716 Y190.522 E.02372
G1 X221.707 Y190.602 E.00387
G1 X221.677 Y190.752 E.00735
G1 X221.657 Y190.815 E.00317
G1 X221.538 Y191.101 E.01487
G1 X221.5 Y191.173 E.00391
G1 X221.421 Y191.291 E.00682
G1 X221.37 Y191.353 E.00385
G1 X191.35 Y221.373 E2.03852
G1 X191.287 Y221.424 E.00389
G1 X191.173 Y221.5 E.00658
G1 X191.101 Y221.538 E.00391
G1 X190.815 Y221.657 E.01487
G1 X190.738 Y221.68 E.00386
G1 X190.602 Y221.707 E.00666
G1 X190.532 Y221.715 E.00338
G1 X190.038 Y221.716 E.02372
G1 X189.959 Y221.707 E.00382
G1 X189.809 Y221.677 E.00735
G1 X189.746 Y221.657 E.00317
G1 X189.459 Y221.538 E.01492
G1 X189.388 Y221.5 E.00387
G1 X189.27 Y221.421 E.00682
G1 X189.208 Y221.37 E.00385
G1 X1.627 Y33.789 E12.73776
G1 X1.576 Y33.727 E.00385
G1 X1.5 Y33.612 E.00662
G1 X1.462 Y33.541 E.00387
G1 X1.343 Y33.254 E.01492
G1 X1.32 Y33.177 E.00386
G1 X1.293 Y33.042 E.00661
G1 X1.285 Y32.972 E.00338
G1 X1.284 Y32.478 E.02372
G1 X1.293 Y32.398 E.00387
G1 X1.323 Y32.248 E.00735
G1 X1.343 Y32.185 E.00317
G1 X1.462 Y31.899 E.01487
G1 X1.5 Y31.827 E.00391
G1 X1.579 Y31.709 E.00682
G1 X1.63 Y31.647 E.00385
G1 X16.596 Y16.681 E1.01627
M204 S4000
M204 S10000
G1 X16.596 Y16.681 F18000
G1 X16.91 Y16.995
M204 S2000
G1 F1800
G1 X31.953 Y1.953 E1.02147
G1 X32.08 Y1.868 E.00734
G1 X32.365 Y1.752 E.01477
G1 X32.494 Y1.729 E.00629
G1 X32.946 Y1.729 E.0217
G1 X33.095 Y1.758 E.00729
G1 X33.36 Y1.868 E.01378
G1 X33.487 Y1.953 E.00734
G1 X221.061 Y189.53 E12.73739
G1 X221.132 Y189.64 E.00629
G1 X221.248 Y189.925 E.01477
G1 X221.271 Y190.054 E.00629
G1 X221.271 Y190.506 E.0217
G1 X221.242 Y190.656 E.00734
G1 X221.132 Y190.92 E.01373
G1 X221.047 Y191.047 E.00734
G1 X191.03 Y221.061 E2.03821
G1 X190.92 Y221.132 E.00629
G1 X190.635 Y221.248 E.01477
G1 X190.506 Y221.271 E.00629
G1 X190.054 Y221.271 E.0217
G1 X189.905 Y221.242 E.00729
G1 X189.64 Y221.132 E.01378
G1 X189.513 Y221.047 E.00734
G1 X1.939 Y33.47 E12.73739
G1 X1.868 Y33.36 E.00629
G1 X1.752 Y33.075 E.01477
G1 X1.729 Y32.946 E.00629
G1 X1.729 Y32.494 E.0217
G1 X1.758 Y32.344 E.00734
G1 X1.868 Y32.08 E.01373
G1 X1.953 Y31.953 E.00734
G1 X16.868 Y17.038 E1.01281
M204 S4000
M204 S10000
G1 X16.868 Y17.038 F18000
G1 X17.182 Y17.352
M204 S2000
G1 F1800
G1 X32.244 Y2.29 E1.02279
G1 X32.28 Y2.266 E.00208
G1 X32.484 Y2.181 E.01061
G1 X32.527 Y2.173 E.0021
G1 X32.913 Y2.173 E.01853
G1 X32.956 Y2.181 E.0021
G1 X33.159 Y2.266 E.01057
G1 X33.196 Y2.29 E.00212
G1 X220.71 Y189.804 E12.73321
G1 X220.734 Y189.841 E.00212
G1 X220.819 Y190.044 E.01057
G1 X220.827 Y190.087 E.0021
G1 X220.827 Y190.473 E.01853
G1 X220.819 Y190.516 E.0021
G1 X220.734 Y190.72 E.01061
G1 X220.71 Y190.756 E.00208
G1 X190.756 Y220.71 E2.03404
G1 X190.72 Y220.734 E.00208
G1 X190.516 Y220.819 E.01061
G1 X190.473 Y220.827 E.0021
G1 X190.087 Y220.827 E.01853
G1 X190.044 Y220.819 E.0021
G1 X189.841 Y220.734 E.01057
G1 X189.804 Y220.71 E.00212
G1 X2.29 Y33.196 E12.73321
G1 X2.266 Y33.159 E.00212
M73 P0 R201
G1 X2.181 Y32.956 E.01057
G1 X2.173 Y32.913 E.0021
G1 X2.173 Y32.527 E.01853
G1 X2.181 Y32.484 E.0021
G1 X2.266 Y32.28 E.01061
G1 X2.29 Y32.244 E.00208
G1 X17.14 Y17.394 E1.0084
M204 S4000
M204 S10000
G1 X17.14 Y17.394 F18000
G1 X17.454 Y17.708
M204 S2000
G1 F1800
G1 X32.511 Y2.651 E1.02245
G1 X32.593 Y2.617 E.00426
G1 X32.847 Y2.617 E.0122
G1 X32.928 Y2.651 E.00422
G1 X220.349 Y190.072 E12.7269
G1 X220.383 Y190.153 E.00422
G1 X220.383 Y190.407 E.0122
G1 X220.349 Y190.489 E.00426
G1 X190.489 Y220.349 E2.02766
G1 X190.407 Y220.383 E.00426
G1 X190.153 Y220.383 E.0122
G1 X190.072 Y220.349 E.00422
G1 X2.651 Y32.928 E12.7269
G1 X2.617 Y32.847 E.00422
G1 X2.617 Y32.593 E.0122
G1 X2.651 Y32.511 E.00426
G1 X17.411 Y17.751 E1.00228
M204 S4000
; printing object Middle_Bar.stl id:0 copy 0
EXCLUDE_OBJECT_START NAME=Middle_Bar_stl_id_0_copy_0
G1 E-.7 F2400
M204 S10000
G1 X17.411 Y17.751 F18000
G1 X192.701 Y170.226
G1 E.7 F2400
M204 S2000
;TYPE:Perimeter
;WIDTH:0.499999
G1 F1800
G1 X192.905 Y170.108 E.01132
G1 X193.394 Y169.905 E.02542
G1 X193.786 Y169.8 E.01949
G1 X194.3 Y169.733 E.02489
G1 X194.697 Y169.732 E.01906
G1 X195.233 Y169.799 E.02594
G1 X195.634 Y169.905 E.01992
G1 X196.123 Y170.108 E.02542
G1 X196.475 Y170.311 E.01951
G1 X196.895 Y170.633 E.02541
G1 X197.182 Y170.92 E.01949
G1 X197.504 Y171.34 E.02541
G1 X197.707 Y171.692 E.01951
G1 X197.909 Y172.181 E.0254
G1 X198.014 Y172.573 E.01949
G1 X198.084 Y173.098 E.02543
G1 X198.084 Y173.504 E.01949
G1 X198.014 Y174.029 E.02543
G1 X197.909 Y174.421 E.01949
G1 X197.707 Y174.91 E.0254
G1 X197.504 Y175.261 E.01947
G1 X197.182 Y175.681 E.02541
G1 X196.895 Y175.968 E.01949
G1 X196.475 Y176.291 E.02544
G1 X196.123 Y176.494 E.01951
G1 X195.634 Y176.696 E.0254
G1 X195.242 Y176.801 E.01949
G1 X194.717 Y176.87 E.02543
G1 X194.311 Y176.87 E.01949
G1 X193.786 Y176.801 E.02543
G1 X193.394 Y176.696 E.01949
G1 X192.905 Y176.494 E.0254
G1 X192.553 Y176.291 E.01951
G1 X192.133 Y175.968 E.02544
G1 X191.846 Y175.681 E.01949
G1 X191.524 Y175.261 E.02541
G1 X191.321 Y174.91 E.01947
G1 X191.122 Y174.43 E.02495
G1 X191.019 Y174.048 E.019
G1 X190.946 Y173.512 E.02597
G1 X190.944 Y173.098 E.01988
G1 X191.014 Y172.573 E.02543
G1 X191.119 Y172.181 E.01949
G1 X191.321 Y171.692 E.0254
G1 X191.524 Y171.34 E.01951
G1 X191.846 Y170.92 E.02541
G1 X192.133 Y170.633 E.01949
G1 X192.553 Y170.311 E.02541
G1 X192.649 Y170.256 E.00531
M204 S4000
M204 S10000
G1 X192.649 Y170.256 F18000
G1 X192.981 Y170.59
M204 S2000
G1 F1800
G1 X193.564 Y170.316 E.03093
G1 X194.358 Y170.173 E.03874
G1 X195.178 Y170.24 E.0395
G1 X195.464 Y170.316 E.01421
G1 X195.953 Y170.518 E.0254
G1 X196.204 Y170.663 E.01392
G1 X196.624 Y170.986 E.02544
G1 X196.829 Y171.191 E.01392
G1 X197.151 Y171.611 E.02541
G1 X197.499 Y172.351 E.03927
G1 X197.643 Y173.156 E.03927
G1 X197.574 Y173.971 E.03927
G1 X197.296 Y174.74 E.03926
G1 X196.829 Y175.411 E.03925
G1 X196.624 Y175.616 E.01392
G1 X196.204 Y175.938 E.02541
G1 X195.953 Y176.083 E.01392
G1 X195.464 Y176.286 E.02542
G1 X195.184 Y176.361 E.01392
G1 X194.659 Y176.43 E.02543
G1 X194.369 Y176.43 E.01392
G1 X193.844 Y176.361 E.02543
G1 X193.564 Y176.286 E.01392
G1 X193.075 Y176.083 E.02542
G1 X192.824 Y175.938 E.01392
G1 X192.404 Y175.616 E.02541
G1 X192.199 Y175.411 E.01392
G1 X191.877 Y174.991 E.02541
G1 X191.732 Y174.74 E.01392
G1 X191.533 Y174.26 E.02495
G1 X191.432 Y173.793 E.02294
G1 X191.375 Y173.286 E.0245
G1 X191.454 Y172.631 E.03168
G1 X191.529 Y172.351 E.01392
G1 X191.732 Y171.862 E.02542
G1 X191.877 Y171.611 E.01392
G1 X192.199 Y171.191 E.02541
G1 X192.404 Y170.986 E.01392
G1 X192.824 Y170.663 E.02544
G1 X192.927 Y170.615 E.00546
M204 S4000
M204 S10000
G1 X192.927 Y170.615 F18000
G1 X193.177 Y170.978
M204 S2000
G1 F1800
G1 X193.734 Y170.726 E.02935
G1 X194.416 Y170.614 E.03319
G1 X195.122 Y170.681 E.03405
G1 X195.783 Y170.929 E.0339
G1 X196.354 Y171.338 E.03373
G1 X196.799 Y171.881 E.03371
G1 X197.089 Y172.521 E.03374
G1 X197.203 Y173.214 E.03372
G1 X197.134 Y173.913 E.03373
G1 X196.886 Y174.57 E.03372
G1 X196.477 Y175.141 E.03373
G1 X195.934 Y175.586 E.03371
G1 X195.294 Y175.875 E.03372
G1 X194.601 Y175.99 E.03373
G1 X193.902 Y175.92 E.03373
G1 X193.245 Y175.673 E.0337
G1 X192.674 Y175.264 E.03373
G1 X192.229 Y174.72 E.03375
G1 X191.944 Y174.091 E.03316
G1 X191.826 Y173.391 E.03409
G1 X191.894 Y172.689 E.03387
G1 X192.142 Y172.032 E.03372
G1 X192.551 Y171.461 E.03373
G1 X193.094 Y171.016 E.03371
G1 X193.123 Y171.003 E.00153
M204 S4000
M204 S10000
G1 X193.123 Y171.003 F18000
G1 X193.374 Y171.364
M204 S2000
;TYPE:External perimeter
G1 F1800
G1 X193.904 Y171.137 E.02768
G1 X194.474 Y171.054 E.02766
G1 X195.067 Y171.121 E.02865
G1 X195.613 Y171.339 E.02823
G1 X196.083 Y171.69 E.02817
G1 X196.447 Y172.152 E.02824
G1 X196.678 Y172.691 E.02816
G1 X196.762 Y173.272 E.02819
G1 X196.693 Y173.855 E.02819
G1 X196.476 Y174.4 E.02817
G1 X196.124 Y174.87 E.0282
G1 X195.663 Y175.233 E.02817
G1 X195.124 Y175.465 E.02818
G1 X194.543 Y175.549 E.02819
G1 X193.96 Y175.48 E.02819
G1 X193.415 Y175.262 E.02818
G1 X192.945 Y174.911 E.02817
G1 X192.581 Y174.45 E.0282
G1 X192.354 Y173.921 E.02764
G1 X192.266 Y173.331 E.02864
G1 X192.335 Y172.747 E.02824
G1 X192.552 Y172.202 E.02817
G1 X192.904 Y171.731 E.02823
G1 X193.326 Y171.399 E.02578
M204 S4000
G1 X193.689 Y171.231 F18000
G1 E-.7 F2400
M204 S10000
G1 X171.488 Y191.439 F18000
G1 E.7 F2400
M204 S2000
;TYPE:Perimeter
G1 F1800
G1 X171.692 Y191.321 E.01132
G1 X172.181 Y191.119 E.0254
G1 X172.573 Y191.014 E.01949
G1 X173.087 Y190.946 E.0249
G1 X173.484 Y190.945 E.01906
G1 X174.02 Y191.012 E.02594
G1 X174.431 Y191.123 E.02044
G1 X174.91 Y191.321 E.02489
G1 X175.261 Y191.524 E.01947
G1 X175.681 Y191.846 E.02541
G1 X175.968 Y192.133 E.01949
G1 X176.291 Y192.553 E.02544
G1 X176.494 Y192.905 E.01951
G1 X176.696 Y193.394 E.0254
G1 X176.801 Y193.786 E.01949
G1 X176.87 Y194.311 E.02543
G1 X176.87 Y194.717 E.01949
G1 X176.801 Y195.242 E.02543
G1 X176.696 Y195.634 E.01949
G1 X176.494 Y196.123 E.0254
G1 X176.291 Y196.474 E.01947
G1 X175.968 Y196.895 E.02548
G1 X175.681 Y197.182 E.01949
G1 X175.261 Y197.504 E.02541
G1 X174.91 Y197.707 E.01947
G1 X174.421 Y197.909 E.0254
G1 X174.029 Y198.014 E.01949
G1 X173.504 Y198.084 E.02543
G1 X173.098 Y198.084 E.01949
G1 X172.573 Y198.014 E.02543
G1 X172.181 Y197.909 E.01949
G1 X171.692 Y197.707 E.0254
G1 X171.34 Y197.504 E.01951
G1 X170.92 Y197.182 E.02541
G1 X170.633 Y196.895 E.01949
G1 X170.311 Y196.475 E.02541
G1 X170.108 Y196.123 E.01951
G1 X169.905 Y195.634 E.02542
G1 X169.8 Y195.242 E.01949
G1 X169.731 Y194.717 E.02543
G1 X169.731 Y194.311 E.01949
G1 X169.8 Y193.786 E.02543
G1 X169.905 Y193.394 E.01949
G1 X170.108 Y192.905 E.02542
G1 X170.311 Y192.553 E.01951
G1 X170.633 Y192.133 E.02541
G1 X170.92 Y191.846 E.01949
G1 X171.34 Y191.524 E.02541
G1 X171.436 Y191.469 E.00531
M204 S4000
M204 S10000
G1 X171.436 Y191.469 F18000
G1 X171.709 Y191.82
M204 S2000
G1 F1800
G1 X171.862 Y191.732 E.00847
G1 X172.351 Y191.529 E.02542
G1 X172.631 Y191.454 E.01392
G1 X173.145 Y191.386 E.0249
G1 X173.623 Y191.41 E.02298
G1 X174.153 Y191.494 E.02577
G1 X174.74 Y191.732 E.03041
G1 X174.991 Y191.877 E.01392
G1 X175.411 Y192.199 E.02541
G1 X175.616 Y192.404 E.01392
G1 X175.938 Y192.824 E.02541
G1 X176.083 Y193.075 E.01392
G1 X176.286 Y193.564 E.02542
G1 X176.361 Y193.844 E.01392
G1 X176.43 Y194.369 E.02543
G1 X176.43 Y194.659 E.01392
G1 X176.361 Y195.184 E.02543
G1 X176.286 Y195.464 E.01392
G1 X176.083 Y195.953 E.02542
G1 X175.938 Y196.204 E.01392
G1 X175.616 Y196.624 E.02541
G1 X175.411 Y196.829 E.01392
G1 X174.991 Y197.151 E.02541
G1 X174.251 Y197.499 E.03927
G1 X173.446 Y197.643 E.03927
G1 X172.631 Y197.574 E.03927
G1 X171.862 Y197.296 E.03926
G1 X171.611 Y197.151 E.01392
G1 X171.191 Y196.829 E.02541
G1 X170.986 Y196.624 E.01392
G1 X170.663 Y196.204 E.02544
G1 X170.316 Y195.464 E.03924
G1 X170.172 Y194.659 E.03927
G1 X170.241 Y193.844 E.03927
G1 X170.518 Y193.075 E.03925
G1 X170.986 Y192.404 E.03928
G1 X171.191 Y192.199 E.01392
G1 X171.611 Y191.877 E.02541
G1 X171.657 Y191.85 E.00256
M204 S4000
M204 S10000
G1 X171.657 Y191.85 F18000
G1 X171.964 Y192.191
M204 S2000
G1 F1800
G1 X172.521 Y191.939 E.02935
G1 X173.203 Y191.827 E.03319
G1 X173.909 Y191.894 E.03405
G1 X174.57 Y192.142 E.0339
G1 X175.141 Y192.551 E.03373
G1 X175.586 Y193.094 E.03371
G1 X175.875 Y193.734 E.03372
G1 X175.99 Y194.427 E.03373
G1 X175.92 Y195.126 E.03373
G1 X175.673 Y195.783 E.0337
G1 X175.264 Y196.354 E.03373
G1 X174.72 Y196.799 E.03375
G1 X174.081 Y197.089 E.03369
G1 X173.388 Y197.203 E.03372
G1 X172.689 Y197.134 E.03373
G1 X172.032 Y196.886 E.03372
G1 X171.461 Y196.477 E.03373
G1 X171.016 Y195.934 E.03371
G1 X170.726 Y195.294 E.03374
G1 X170.612 Y194.601 E.03372
G1 X170.681 Y193.902 E.03373
G1 X170.929 Y193.245 E.03372
G1 X171.338 Y192.674 E.03373
G1 X171.881 Y192.229 E.03371
G1 X171.91 Y192.216 E.00153
M204 S4000
M204 S10000
G1 X171.91 Y192.216 F18000
G1 X172.161 Y192.577
M204 S2000
;TYPE:External perimeter
G1 F1800
G1 X172.691 Y192.35 E.02768
G1 X173.261 Y192.267 E.02766
G1 X173.853 Y192.335 E.02861
G1 X174.4 Y192.552 E.02826
G1 X174.87 Y192.904 E.0282
G1 X175.233 Y193.365 E.02817
G1 X175.465 Y193.904 E.02818
G1 X175.549 Y194.485 E.02819
G1 X175.48 Y195.068 E.02819
G1 X175.262 Y195.613 E.02818
G1 X174.911 Y196.083 E.02817
G1 X174.45 Y196.447 E.0282
G1 X173.911 Y196.678 E.02816
G1 X173.33 Y196.762 E.02819
G1 X172.747 Y196.693 E.02819
G1 X172.202 Y196.476 E.02817
G1 X171.731 Y196.124 E.02823
G1 X171.368 Y195.663 E.02817
G1 X171.137 Y195.124 E.02816
G1 X171.052 Y194.543 E.02819
G1 X171.122 Y193.96 E.02819
G1 X171.339 Y193.415 E.02817
G1 X171.69 Y192.945 E.02817
G1 X172.112 Y192.612 E.02581
M204 S4000
G1 X172.475 Y192.444 F18000
G1 E-.7 F2400
M204 S10000
G1 X136.133 Y156.083 F18000
G1 E.7 F2400
M204 S2000
;TYPE:Perimeter
G1 F1800
G1 X136.336 Y155.966 E.01125
G1 X136.826 Y155.763 E.02547
G1 X137.218 Y155.658 E.01949
G1 X137.731 Y155.591 E.02484
G1 X138.129 Y155.589 E.01911
G1 X138.665 Y155.657 E.02594
G1 X139.076 Y155.768 E.02044
G1 X139.554 Y155.966 E.02484
G1 X139.906 Y156.169 E.01951
G1 X140.326 Y156.491 E.02541
G1 X140.613 Y156.778 E.01949
G1 X140.935 Y157.198 E.02541
G1 X141.138 Y157.55 E.01951
G1 X141.341 Y158.039 E.02542
G1 X141.446 Y158.431 E.01949
G1 X141.515 Y158.956 E.02543
G1 X141.515 Y159.362 E.01949
G1 X141.446 Y159.887 E.02543
G1 X141.341 Y160.279 E.01949
G1 X141.138 Y160.768 E.02542
G1 X140.935 Y161.119 E.01947
G1 X140.613 Y161.539 E.02541
G1 X140.326 Y161.826 E.01949
G1 X139.906 Y162.149 E.02544
G1 X139.554 Y162.351 E.01949
G1 X139.065 Y162.554 E.02542
G1 X138.673 Y162.659 E.01949
G1 X138.148 Y162.728 E.02543
G1 X137.743 Y162.728 E.01945
G1 X137.218 Y162.659 E.02543
G1 X136.826 Y162.554 E.01949
G1 X136.336 Y162.351 E.02547
G1 X135.985 Y162.149 E.01945
G1 X135.565 Y161.826 E.02544
G1 X135.278 Y161.539 E.01949
G1 X134.956 Y161.119 E.02541
G1 X134.753 Y160.768 E.01947
G1 X134.55 Y160.279 E.02542
G1 X134.445 Y159.887 E.01949
G1 X134.376 Y159.362 E.02543
G1 X134.376 Y158.956 E.01949
