; generated by PrusaSlicer 2.7.2+linux-x64-GTK3 on 2024-03-10 at 00:38:28 UTC


;
;

;
;
; 

; external perimeters extrusion width = 0.40mm
; perimeters extrusion width = 0.40mm
; infill extrusion width = 0.64mm
; solid infill extrusion width = 0.56mm
; top infill extrusion width = 0.40mm
; first layer extrusion width = 0.50mm



; Pre-Processed for Cancel-Object support by preprocess_cancellation v0.2.0
; 1 known objects
EXCLUDE_OBJECT_DEFINE NAME=Rear_Bar_stl_id_0_copy_0 CENTER=112.206,112.428 POLYGON=[[0.564,2.019],[0.564,222.151],[220.739,222.151],[220.739,2.019]]
M73 P0 R177

; printing object Rear_Bar.stl id:0 copy 0
EXCLUDE_OBJECT_START NAME=Rear_Bar_stl_id_0_copy_0
; stop printing object Rear_Bar.stl id:0 copy 0
EXCLUDE_OBJECT_END NAME=Rear_Bar_stl_id_0_copy_0

;TYPE:Custom
M104 S0 ; Stops PS/SS from sending temp waits separately
M140 S0
M117
PRINT_START BED=60 HOTEND=230
; PURGE_LINE

;; If you are passing variables to PRINT_START, comment out above line and uncomment the last 3 lines instead. (I already did this)
;; Guide: https://github.com/AndrewEllis93/Print-Tuning-Guide/blob/main/articles/passing_slicer_variables.md
;; Make sure the variable names match (for example if you use "EXTRUDER" instead of "HOTEND")
G21 ; set units to millimeters
G90 ; use absolute coordinates
M83 ; use relative distances for extrusion
; Filament gcode
M107
;LAYER_CHANGE
;Z:0.26
;HEIGHT:0.26
G1 E-.7 F2400
G1 Z.26 F18000
G1 X14.775 Y14.776
G1 Z.26
G1 E.7 F2400
M204 S2000
;TYPE:Skirt/Brim
;WIDTH:0.5
G1 F1800
G1 X28.336 Y1.216 E.92083
G1 X28.441 Y1.124 E.0067
G1 X28.626 Y.982 E.0112
G1 X28.811 Y.859 E.01067
G1 X29.015 Y.741 E.01132
G1 X29.202 Y.651 E.00996
G1 X29.562 Y.502 E.01871
G1 X29.823 Y.416 E.0132
G1 X29.989 Y.374 E.00822
G1 X30.194 Y.333 E.01004
G1 X30.502 Y.297 E.01489
G1 X30.638 Y.291 E.00654
G1 X31.39 Y.292 E.03611
G1 X31.567 Y.302 E.00851
G1 X31.749 Y.323 E.0088
G1 X32.134 Y.401 E.01886
G1 X32.395 Y.482 E.01312
G1 X32.816 Y.654 E.02184
G1 X33.029 Y.76 E.01142
G1 X33.209 Y.865 E.01001
G1 X33.467 Y1.043 E.01505
G1 X33.716 Y1.255 E.0157
G1 X221.501 Y189.04 E12.75162
G1 X221.726 Y189.306 E.01673
M73 P0 R176
G1 X221.928 Y189.606 E.01737
G1 X222.06 Y189.848 E.01324
G1 X222.265 Y190.335 E.02537
G1 X222.33 Y190.528 E.00978
G1 X222.367 Y190.664 E.00677
G1 X222.439 Y191.038 E.01829
G1 X222.464 Y191.311 E.01316
G1 X222.465 Y192.165 E.04101
G1 X222.454 Y192.336 E.00823
G1 X222.422 Y192.578 E.01172
G1 X222.361 Y192.866 E.01414
G1 X222.255 Y193.197 E.01669
G1 X222.102 Y193.567 E.01923
G1 X221.972 Y193.824 E.01383
G1 X221.889 Y193.961 E.00769
G1 X221.765 Y194.146 E.01069
G1 X221.664 Y194.278 E.00798
G1 X221.556 Y194.406 E.00804
G1 X195.389 Y220.578 E1.77705
G1 X195.123 Y220.802 E.0167
G1 X194.824 Y221.004 E.01733
G1 X194.581 Y221.136 E.01328
G1 X194.067 Y221.351 E.02675
G1 X193.779 Y221.439 E.01446
G1 X193.434 Y221.509 E.0169
G1 X193.161 Y221.538 E.01318
G1 X192.247 Y221.541 E.04389
G1 X192.062 Y221.527 E.00891
G1 X191.923 Y221.51 E.00672
G1 X191.525 Y221.427 E.01952
G1 X191.236 Y221.333 E.01459
G1 X190.878 Y221.185 E.0186
G1 X190.69 Y221.095 E.01001
G1 X190.478 Y220.972 E.01177
G1 X190.22 Y220.795 E.01502
G1 X190.084 Y220.685 E.0084
G1 X189.959 Y220.573 E.00806
G1 X185.343 Y215.969 E.31304
G1 X172.663 Y203.255 E.8622
G1 X13.48 Y44.072 E10.80939
G1 X6.791 Y37.417 E.45307
G1 X2.176 Y32.79 E.31379
G1 X1.952 Y32.524 E.0167
G1 X1.75 Y32.223 E.01741
G1 X1.608 Y31.959 E.01439
G1 X1.404 Y31.466 E.02562
G1 X1.311 Y31.156 E.01554
G1 X1.247 Y30.833 E.01581
G1 X1.219 Y30.561 E.01313
G1 X1.217 Y29.636 E.04442
G1 X1.227 Y29.497 E.00669
G1 X1.253 Y29.297 E.00968
G1 X1.299 Y29.061 E.01155
G1 X1.332 Y28.925 E.00672
G1 X1.426 Y28.636 E.01459
G1 X1.579 Y28.267 E.01918
G1 X1.738 Y27.959 E.01664
G1 X1.893 Y27.721 E.01364
G1 X2.014 Y27.559 E.00971
G1 X2.146 Y27.405 E.00974
G1 X14.733 Y14.818 E.85473
M204 S4000
M204 S10000
G1 X15.047 Y15.132 F18000
M204 S2000
G1 F1800
G1 X28.633 Y1.545 E.9226
G1 X28.718 Y1.471 E.00541
G1 X28.879 Y1.347 E.00976
G1 X29.051 Y1.232 E.00993
G1 X29.229 Y1.13 E.00985
G1 X29.378 Y1.059 E.00793
G1 X29.724 Y.915 E.018
G1 X29.953 Y.84 E.01157
G1 X30.272 Y.771 E.01567
G1 X30.544 Y.739 E.01315
G1 X30.642 Y.735 E.00471
G1 X31.383 Y.736 E.03558
G1 X31.534 Y.745 E.00726
G1 X31.688 Y.763 E.00744
G1 X32.019 Y.83 E.01622
G1 X32.147 Y.867 E.0064
G1 X32.246 Y.9 E.00501
G1 X32.64 Y1.062 E.02046
G1 X32.824 Y1.154 E.00988
G1 X32.967 Y1.238 E.00796
G1 X33.121 Y1.34 E.00887
G1 X33.199 Y1.397 E.00464
G1 X33.408 Y1.575 E.01318
G1 X221.182 Y189.348 E12.75084
G1 X221.371 Y189.573 E.01411
G1 X221.547 Y189.834 E.01512
G1 X221.662 Y190.045 E.01154
G1 X221.846 Y190.483 E.02281
G1 X221.936 Y190.773 E.01458
G1 X221.999 Y191.096 E.0158
G1 X222.02 Y191.333 E.01142
G1 X222.021 Y192.157 E.03957
G1 X222.012 Y192.286 E.00621
G1 X221.985 Y192.495 E.01012
G1 X221.93 Y192.755 E.01276
G1 X221.842 Y193.034 E.01405
G1 X221.695 Y193.389 E.01845
G1 X221.58 Y193.615 E.01218
G1 X221.4 Y193.892 E.01586
G1 X221.234 Y194.099 E.01274
G1 X195.08 Y220.258 E1.77617
G1 X194.856 Y220.447 E.01407
G1 X194.595 Y220.623 E.01512
G1 X194.384 Y220.738 E.01154
G1 X193.918 Y220.933 E.02426
G1 X193.666 Y221.01 E.01265
G1 X193.369 Y221.07 E.01455
G1 X193.132 Y221.095 E.01144
G1 X192.271 Y221.097 E.04134
G1 X191.987 Y221.07 E.0137
G1 X191.64 Y220.998 E.01702
G1 X191.398 Y220.919 E.01222
G1 X191.053 Y220.777 E.01791
G1 X190.904 Y220.705 E.00795
G1 X190.721 Y220.601 E.01011
G1 X190.491 Y220.443 E.0134
G1 X190.376 Y220.351 E.00707
G1 X190.269 Y220.254 E.00693
G1 X185.657 Y215.655 E.31274
G1 X172.977 Y202.941 E.8622
G1 X13.794 Y43.758 E10.80939
G1 X7.105 Y37.103 E.45307
G1 X2.496 Y32.482 E.31338
G1 X2.307 Y32.257 E.01411
G1 X2.132 Y31.996 E.01509
G1 X2.008 Y31.765 E.01259
G1 X1.823 Y31.318 E.02323
G1 X1.741 Y31.046 E.01364
G1 X1.687 Y30.769 E.01355
G1 X1.662 Y30.532 E.01144
G1 X1.661 Y29.659 E.04192
G1 X1.692 Y29.36 E.01443
G1 X1.761 Y29.039 E.01577
G1 X1.84 Y28.798 E.01218
G1 X1.987 Y28.444 E.01841
G1 X2.121 Y28.184 E.01404
G1 X2.261 Y27.971 E.01224
G1 X2.365 Y27.832 E.00834
G1 X2.477 Y27.701 E.00828
G1 X15.004 Y15.174 E.85065
M204 S4000
M204 S10000
G1 X15.004 Y15.174 F18000
G1 X15.318 Y15.488
M204 S2000
G1 F1800
G1 X28.931 Y1.875 E.9244
G1 X29.133 Y1.712 E.01246
G1 X29.291 Y1.606 E.00914
G1 X29.442 Y1.521 E.00832
G1 X29.554 Y1.467 E.00597
G1 X29.886 Y1.329 E.01726
G1 X30.082 Y1.265 E.0099
G1 X30.349 Y1.208 E.01311
G1 X30.57 Y1.183 E.01068
G1 X31.377 Y1.18 E.03875
G1 X31.627 Y1.203 E.01205
G1 X31.904 Y1.259 E.01357
G1 X32.096 Y1.319 E.00966
G1 X32.463 Y1.47 E.01906
G1 X32.618 Y1.547 E.00831
G1 X32.725 Y1.61 E.00596
G1 X32.932 Y1.752 E.01205
G1 X33.101 Y1.896 E.01066
G1 X220.862 Y189.657 E12.74999
G1 X221.015 Y189.839 E.01142
G1 X221.166 Y190.063 E.01297
G1 X221.263 Y190.242 E.00978
G1 X221.428 Y190.632 E.02033
G1 X221.505 Y190.881 E.01251
G1 X221.558 Y191.154 E.01335
G1 X221.577 Y191.355 E.00969
G1 X221.577 Y192.137 E.03755
G1 X221.571 Y192.238 E.00486
G1 X221.548 Y192.414 E.00852
G1 X221.5 Y192.645 E.01133
G1 X221.428 Y192.872 E.01143
G1 X221.288 Y193.211 E.01761
G1 X221.196 Y193.392 E.00975
G1 X221.035 Y193.639 E.01416
G1 X220.901 Y193.806 E.01028
G1 X194.772 Y219.938 E1.7744
G1 X194.59 Y220.091 E.01142
G1 X194.366 Y220.242 E.01297
G1 X194.188 Y220.339 E.00973
G1 X193.768 Y220.515 E.02187
G1 X193.553 Y220.58 E.01078
G1 X193.303 Y220.63 E.01224
G1 X193.103 Y220.651 E.00966
G1 X192.295 Y220.654 E.0388
G1 X192.052 Y220.631 E.01172
G1 X191.755 Y220.569 E.01457
G1 X191.56 Y220.505 E.00985
G1 X191.228 Y220.369 E.01723
G1 X191.116 Y220.315 E.00597
G1 X190.963 Y220.228 E.00845
G1 X190.761 Y220.09 E.01175
G1 X190.578 Y219.936 E.01148
G1 X185.971 Y215.341 E.31243
G1 X173.291 Y202.627 E.8622
G1 X14.107 Y43.443 E10.80945
G1 X7.418 Y36.789 E.45303
G1 X2.816 Y32.174 E.31294
G1 X2.663 Y31.992 E.01142
G1 X2.513 Y31.767 E.01298
G1 X2.408 Y31.571 E.01068
G1 X2.241 Y31.169 E.0209
G1 X2.172 Y30.936 E.01167
G1 X2.126 Y30.704 E.01136
G1 X2.105 Y30.504 E.00966
G1 X2.105 Y29.681 E.03952
G1 X2.132 Y29.424 E.01241
G1 X2.19 Y29.154 E.01326
G1 X2.253 Y28.96 E.00979
G1 X2.394 Y28.622 E.01759
G1 X2.503 Y28.411 E.0114
G1 X2.628 Y28.22 E.01096
G1 X2.706 Y28.116 E.00624
G1 X2.808 Y27.997 E.00753
G1 X15.276 Y15.53 E.84661
M204 S4000
M204 S10000
G1 X15.276 Y15.53 F18000
G1 X15.589 Y15.844
M204 S2000
G1 F1800
G1 X29.231 Y2.203 E.92633
G1 X29.387 Y2.076 E.00966
G1 X29.531 Y1.98 E.00831
G1 X29.653 Y1.911 E.00673
G1 X30.047 Y1.743 E.02057
G1 X30.209 Y1.691 E.00817
G1 X30.427 Y1.646 E.01069
G1 X30.65 Y1.624 E.01076
G1 X31.37 Y1.624 E.03457
G1 X31.566 Y1.643 E.00946
G1 X31.789 Y1.688 E.01092
G1 X31.945 Y1.736 E.00784
G1 X32.285 Y1.877 E.01767
G1 X32.411 Y1.94 E.00676
G1 X32.619 Y2.074 E.01188
G1 X32.793 Y2.216 E.01078
G1 X220.541 Y189.965 E12.74914
G1 X220.658 Y190.103 E.00869
M73 P0 R175
G1 X220.786 Y190.293 E.011
G1 X220.865 Y190.438 E.00793
G1 X221.014 Y190.795 E.01857
G1 X221.074 Y190.987 E.00966
G1 X221.118 Y191.212 E.01101
G1 X221.133 Y191.375 E.00786
G1 X221.133 Y192.13 E.03625
G1 X221.111 Y192.333 E.0098
G1 X221.069 Y192.537 E.01
G1 X221.014 Y192.71 E.00872
G1 X220.881 Y193.033 E.01677
G1 X220.811 Y193.17 E.00739
G1 X220.67 Y193.386 E.01239
G1 X220.567 Y193.513 E.00785
G1 X194.464 Y219.618 E1.7726
G1 X194.325 Y219.734 E.00869
G1 X194.136 Y219.862 E.01096
G1 X193.991 Y219.941 E.00793
G1 X193.617 Y220.097 E.01946
G1 X193.441 Y220.15 E.00883
G1 X193.236 Y220.191 E.01004
G1 X193.074 Y220.208 E.00782
G1 X192.32 Y220.21 E.0362
G1 X192.119 Y220.192 E.00969
G1 X191.871 Y220.14 E.01217
G1 X191.721 Y220.092 E.00756
G1 X191.403 Y219.96 E.01653
G1 X191.204 Y219.855 E.0108
G1 X191.031 Y219.737 E.01006
G1 X190.888 Y219.617 E.00896
G1 X186.285 Y215.028 E.31209
G1 X173.605 Y202.313 E.86223
G1 X14.421 Y43.129 E10.80945
G1 X7.732 Y36.474 E.45307
G1 X3.137 Y31.866 E.31247
G1 X3.021 Y31.727 E.00869
G1 X2.893 Y31.537 E.011
G1 X2.807 Y31.377 E.00872
G1 X2.659 Y31.019 E.0186
G1 X2.602 Y30.826 E.00966
G1 X2.566 Y30.638 E.00919
G1 X2.549 Y30.475 E.00787
G1 X2.548 Y29.702 E.03712
G1 X2.569 Y29.502 E.00966
G1 X2.619 Y29.269 E.01144
G1 X2.667 Y29.123 E.00738
G1 X2.801 Y28.8 E.01679
G1 X2.885 Y28.639 E.00872
G1 X2.996 Y28.469 E.00975
G1 X3.14 Y28.293 E.01092
G1 X15.547 Y15.886 E.8425
M204 S4000
M204 S10000
G1 X15.547 Y15.886 F18000
G1 X15.861 Y16.2
M204 S2000
G1 F1800
G1 X29.531 Y2.53 E.92827
G1 X29.641 Y2.441 E.00679
G1 X29.77 Y2.355 E.00744
G1 X29.863 Y2.303 E.00512
G1 X30.209 Y2.157 E.01803
G1 X30.322 Y2.121 E.00569
G1 X30.505 Y2.083 E.00897
G1 X30.623 Y2.07 E.0057
G1 X31.364 Y2.068 E.03558
G1 X31.504 Y2.083 E.00676
G1 X31.674 Y2.117 E.00832
G1 X31.792 Y2.154 E.00594
G1 X32.107 Y2.284 E.01636
G1 X32.241 Y2.355 E.00728
G1 X32.368 Y2.441 E.00736
G1 X32.486 Y2.537 E.0073
G1 X220.221 Y190.272 E12.74822
G1 X220.3 Y190.366 E.0059
G1 X220.407 Y190.525 E.0092
G1 X220.466 Y190.634 E.00595
G1 X220.601 Y190.957 E.01681
G1 X220.642 Y191.092 E.00677
G1 X220.677 Y191.27 E.00871
G1 X220.689 Y191.394 E.00598
G1 X220.689 Y192.111 E.03443
G1 X220.674 Y192.254 E.0069
G1 X220.638 Y192.431 E.00867
G1 X220.6 Y192.548 E.00591
G1 X220.474 Y192.854 E.01589
G1 X220.425 Y192.949 E.00513
G1 X220.311 Y193.123 E.00999
G1 X220.233 Y193.219 E.00594
G1 X194.157 Y219.297 E1.77077
G1 X194.063 Y219.376 E.0059
G1 X193.904 Y219.483 E.0092
G1 X193.795 Y219.542 E.00595
G1 X193.464 Y219.68 E.01722
G1 X193.329 Y219.72 E.00676
G1 X193.168 Y219.752 E.00788
G1 X193.045 Y219.765 E.00594
G1 X192.328 Y219.766 E.03443
G1 X192.187 Y219.753 E.0068
G1 X191.989 Y219.712 E.00971
G1 X191.882 Y219.678 E.00539
G1 X191.578 Y219.552 E.0158
G1 X191.444 Y219.481 E.00728
G1 X191.301 Y219.384 E.0083
G1 X191.197 Y219.298 E.00648
G1 X186.6 Y214.714 E.31172
G1 X173.919 Y201.999 E.86226
G1 X14.735 Y42.814 E10.80949
G1 X8.046 Y36.16 E.45303
G1 X3.458 Y31.559 E.31199
G1 X3.379 Y31.465 E.0059
G1 X3.272 Y31.306 E.0092
G1 X3.214 Y31.197 E.00593
G1 X3.076 Y30.866 E.01722
G1 X3.036 Y30.731 E.00676
G1 X3.005 Y30.57 E.00787
G1 X2.992 Y30.447 E.00594
G1 X2.992 Y29.721 E.03486
G1 X3.007 Y29.58 E.00681
G1 X3.048 Y29.386 E.00952
G1 X3.081 Y29.284 E.00515
G1 X3.208 Y28.979 E.01586
G1 X3.264 Y28.87 E.00588
G1 X3.363 Y28.719 E.00867
G1 X3.46 Y28.601 E.00733
G1 X15.818 Y16.243 E.83917
M204 S4000
M204 S10000
G1 X15.818 Y16.243 F18000
G1 X16.132 Y16.557
M204 S2000
G1 F1800
G1 X29.834 Y2.855 E.93044
G1 X29.897 Y2.804 E.00389
G1 X30.07 Y2.696 E.00979
G1 X30.369 Y2.571 E.01556
G1 X30.446 Y2.548 E.00386
G1 X30.582 Y2.521 E.00666
G1 X30.662 Y2.512 E.00387
G1 X31.348 Y2.512 E.03294
G1 X31.428 Y2.521 E.00387
G1 X31.628 Y2.566 E.00984
G1 X31.927 Y2.69 E.01554
G1 X31.998 Y2.728 E.00387
G1 X32.117 Y2.807 E.00686
G1 X32.178 Y2.858 E.00382
G1 X219.899 Y190.579 E12.74727
G1 X219.942 Y190.629 E.00317
M73 P1 R175
G1 X220.03 Y190.759 E.00754
G1 X220.067 Y190.83 E.00384
G1 X220.186 Y191.117 E.01492
G1 X220.21 Y191.194 E.00387
G1 X220.237 Y191.329 E.00661
G1 X220.245 Y191.409 E.00386
G1 X220.245 Y192.096 E.03299
G1 X220.237 Y192.175 E.00381
G1 X220.206 Y192.325 E.00735
G1 X220.186 Y192.388 E.00317
G1 X220.067 Y192.675 E.01492
G1 X220.03 Y192.746 E.00384
G1 X219.951 Y192.864 E.00682
G1 X219.899 Y192.926 E.00389
G1 X193.85 Y218.976 E1.7689
G1 X193.799 Y219.018 E.00317
G1 X193.669 Y219.106 E.00754
G1 X193.599 Y219.143 E.0038
G1 X193.308 Y219.264 E.01513
G1 X193.232 Y219.287 E.00381
G1 X193.096 Y219.314 E.00666
G1 X193.016 Y219.321 E.00386
G1 X192.338 Y219.322 E.03256
G1 X192.259 Y219.314 E.00381
G1 X192.105 Y219.283 E.00754
G1 X192.042 Y219.263 E.00317
G1 X191.743 Y219.139 E.01554
G1 X191.57 Y219.031 E.00979
G1 X191.507 Y218.98 E.00389
G1 X186.914 Y214.4 E.31145
G1 X174.233 Y201.685 E.86226
G1 X15.048 Y42.5 E10.80952
G1 X8.36 Y35.846 E.453
G1 X3.78 Y31.253 E.31145
G1 X3.738 Y31.202 E.00317
G1 X3.65 Y31.072 E.00754
G1 X3.613 Y31.002 E.0038
G1 X3.493 Y30.711 E.01511
G1 X3.47 Y30.634 E.00386
G1 X3.443 Y30.499 E.00661
G1 X3.436 Y30.419 E.00386
G1 X3.436 Y29.737 E.03275
G1 X3.444 Y29.657 E.00386
G1 X3.474 Y29.513 E.00706
G1 X3.495 Y29.445 E.00342
G1 X3.614 Y29.158 E.01492
G1 X3.644 Y29.1 E.00314
G1 X3.731 Y28.969 E.00755
G1 X3.782 Y28.908 E.00382
G1 X16.09 Y16.599 E.83581
M204 S4000
M204 S10000
G1 X16.09 Y16.599 F18000
G1 X16.404 Y16.913
M204 S2000
G1 F1800
G1 X30.137 Y3.181 E.93251
G1 X30.264 Y3.096 E.00734
G1 X30.528 Y2.986 E.01373
G1 X30.656 Y2.959 E.00628
G1 X31.354 Y2.959 E.03352
G1 X31.482 Y2.986 E.00628
G1 X31.746 Y3.096 E.01373
G1 X31.873 Y3.181 E.00734
G1 X219.591 Y190.901 E12.74713
G1 X219.662 Y191.011 E.00629
M73 P1 R174
G1 X219.771 Y191.276 E.01376
G1 X219.799 Y191.404 E.00629
G1 X219.801 Y192.079 E.03241
G1 X219.771 Y192.229 E.00735
G1 X219.662 Y192.494 E.01376
G1 X219.577 Y192.621 E.00734
G1 X193.527 Y218.667 E1.7688
G1 X193.417 Y218.738 E.00629
G1 X193.153 Y218.847 E.01371
G1 X193.026 Y218.875 E.00624
G1 X192.35 Y218.877 E.03246
G1 X192.201 Y218.848 E.00729
G1 X191.937 Y218.739 E.01371
G1 X191.81 Y218.654 E.00734
G1 X187.228 Y214.085 E.3107
G1 X174.547 Y201.37 E.86226
G1 X15.362 Y42.185 E10.80952
G1 X8.674 Y35.531 E.453
G1 X4.089 Y30.931 E.31186
G1 X4.019 Y30.821 E.00626
G1 X3.91 Y30.557 E.01371
G1 X3.882 Y30.429 E.00629
G1 X3.88 Y29.754 E.03241
G1 X3.91 Y29.604 E.00735
G1 X4.02 Y29.34 E.01373
G1 X4.104 Y29.213 E.00731
G1 X16.362 Y16.956 E.83235
M204 S4000
M204 S10000
G1 X16.362 Y16.956 F18000
G1 X16.676 Y17.27
M204 S2000
G1 F1800
G1 X30.428 Y3.518 E.93384
G1 X30.464 Y3.494 E.00208
G1 X30.668 Y3.409 E.01061
G1 X30.711 Y3.401 E.0021
G1 X31.299 Y3.401 E.02823
G1 X31.342 Y3.409 E.0021
G1 X31.546 Y3.494 E.01061
G1 X31.582 Y3.518 E.00208
G1 X219.239 Y191.175 E12.74292
G1 X219.264 Y191.212 E.00214
G1 X219.348 Y191.415 E.01055
G1 X219.357 Y191.458 E.00211
G1 X219.357 Y192.047 E.02828
G1 X219.348 Y192.09 E.00211
G1 X219.264 Y192.293 E.01055
G1 X219.239 Y192.33 E.00214
G1 X193.253 Y218.316 E1.76459
G1 X193.217 Y218.34 E.00208
G1 X193.014 Y218.424 E.01055
G1 X192.971 Y218.433 E.00211
G1 X192.383 Y218.433 E.02823
G1 X192.34 Y218.425 E.0021
G1 X192.136 Y218.341 E.01059
G1 X192.1 Y218.316 E.0021
G1 X187.542 Y213.772 E.30904
G1 X174.861 Y201.056 E.8623
G1 X15.676 Y41.871 E10.80952
G1 X8.988 Y35.217 E.453
G1 X4.441 Y30.657 E.30921
