; generated by PrusaSlicer 2.7.2+linux-x64-GTK3 on 2024-03-10 at 17:31:56 UTC


;
;

;
;
; 

; external perimeters extrusion width = 0.40mm
; perimeters extrusion width = 0.40mm
; infill extrusion width = 0.64mm
; solid infill extrusion width = 0.56mm
; top infill extrusion width = 0.40mm
; first layer extrusion width = 0.50mm



; Pre-Processed for Cancel-Object support by preprocess_cancellation v0.2.0
; 1 known objects
EXCLUDE_OBJECT_DEFINE NAME=Top_bar_stl_id_0_copy_0 CENTER=112.404,108.148 POLYGON=[[0.486,0.485],[0.486,222.516],[222.517,222.516],[222.517,0.485]]
M73 P0 R194

; printing object Top_bar.stl id:0 copy 0
EXCLUDE_OBJECT_START NAME=Top_bar_stl_id_0_copy_0
; stop printing object Top_bar.stl id:0 copy 0
EXCLUDE_OBJECT_END NAME=Top_bar_stl_id_0_copy_0

;TYPE:Custom
M104 S0 ; Stops PS/SS from sending temp waits separately
M140 S0
M117
PRINT_START BED=60 HOTEND=230
; PURGE_LINE

;; If you are passing variables to PRINT_START, comment out above line and uncomment the last 3 lines instead. (I already did this)
;; Guide: https://github.com/AndrewEllis93/Print-Tuning-Guide/blob/main/articles/passing_slicer_variables.md
;; Make sure the variable names match (for example if you use "EXTRUDER" instead of "HOTEND")
G21 ; set units to millimeters
G90 ; use absolute coordinates
M83 ; use relative distances for extrusion
; Filament gcode
M107
;LAYER_CHANGE
;Z:0.26
;HEIGHT:0.26
G1 E-.7 F2400
G1 Z.26 F18000
G1 X95.358 Y95.358
G1 Z.26
G1 E.7 F2400
M204 S2000
;TYPE:Skirt/Brim
;WIDTH:0.5
G1 F1800
G1 X189.15 Y1.566 E6.36898
G1 X189.213 Y1.515 E.00389
G1 X189.386 Y1.406 E.00982
G1 X189.685 Y1.282 E.01554
G1 X189.748 Y1.262 E.00317
G1 X189.898 Y1.231 E.00735
G1 X189.968 Y1.223 E.00338
G1 X190.471 Y1.223 E.02415
G1 X190.673 Y1.257 E.00984
G1 X190.741 Y1.277 E.0034
G1 X191.041 Y1.401 E.01559
G1 X191.112 Y1.438 E.00384
G1 X191.23 Y1.517 E.00682
G1 X191.292 Y1.568 E.00385
G1 X221.437 Y31.713 E2.04701
G1 X221.487 Y31.775 E.00382
G1 X221.564 Y31.89 E.00665
G1 X221.602 Y31.961 E.00387
G1 X221.72 Y32.248 E.0149
G1 X221.74 Y32.311 E.00317
G1 X221.771 Y32.461 E.00735
G1 X221.779 Y32.54 E.00381
G1 X221.779 Y33.034 E.02372
G1 X221.771 Y33.105 E.00343
G1 X221.744 Y33.24 E.00661
G1 X221.72 Y33.317 E.00387
G1 X221.602 Y33.604 E.0149
G1 X221.564 Y33.675 E.00387
G1 X221.485 Y33.793 E.00682
G1 X221.434 Y33.855 E.00385
G1 X33.853 Y221.436 E12.73776
G1 X33.79 Y221.486 E.00386
G1 X33.676 Y221.563 E.00661
G1 X33.605 Y221.601 E.00387
G1 X33.318 Y221.719 E.0149
G1 X33.255 Y221.739 E.00317
G1 X33.105 Y221.77 E.00735
G1 X33.026 Y221.778 E.00381
G1 X32.532 Y221.778 E.02372
G1 X32.461 Y221.77 E.00343
G1 X32.326 Y221.743 E.00661
G1 X32.249 Y221.719 E.00387
G1 X31.962 Y221.601 E.0149
G1 X31.891 Y221.563 E.00387
G1 X31.773 Y221.484 E.00682
G1 X31.711 Y221.433 E.00385
G1 X1.566 Y191.288 E2.04701
G1 X1.516 Y191.226 E.00382
G1 X1.439 Y191.111 E.00665
G1 X1.402 Y191.04 E.00384
G1 X1.283 Y190.753 E.01492
G1 X1.263 Y190.69 E.00317
G1 X1.232 Y190.54 E.00735
G1 X1.224 Y190.461 E.00381
G1 X1.224 Y189.967 E.02372
G1 X1.232 Y189.897 E.00338
G1 X1.259 Y189.761 E.00666
G1 X1.283 Y189.684 E.00387
G1 X1.402 Y189.398 E.01487
G1 X1.439 Y189.326 E.00389
G1 X1.518 Y189.208 E.00682
G1 X1.569 Y189.146 E.00385
G1 X95.315 Y95.4 E6.36586
M204 S4000
M204 S10000
G1 X95.315 Y95.4 F18000
G1 X95.63 Y95.715
M204 S2000
G1 F1800
G1 X189.453 Y1.891 E6.37112
G1 X189.58 Y1.806 E.00734
G1 X189.865 Y1.691 E.01476
G1 X189.994 Y1.667 E.0063
G1 X190.446 Y1.667 E.0217
G1 X190.595 Y1.697 E.0073
G1 X190.86 Y1.806 E.01376
G1 X190.987 Y1.891 E.00734
G1 X221.111 Y32.016 E2.04562
G1 X221.196 Y32.143 E.00734
G1 X221.305 Y32.407 E.01371
G1 X221.335 Y32.557 E.00735
G1 X221.335 Y33.008 E.02166
G1 X221.312 Y33.137 E.00629
G1 X221.196 Y33.422 E.01477
G1 X221.125 Y33.533 E.00633
G1 X33.55 Y221.11 E12.73742
G1 X33.423 Y221.195 E.00734
G1 X33.159 Y221.304 E.01371
G1 X33.009 Y221.334 E.00735
G1 X32.558 Y221.334 E.02166
G1 X32.429 Y221.311 E.00629
G1 X32.143 Y221.195 E.01482
G1 X32.033 Y221.124 E.00629
G1 X1.892 Y190.986 E2.04663
G1 X1.807 Y190.859 E.00734
G1 X1.698 Y190.594 E.01376
G1 X1.668 Y190.445 E.0073
G1 X1.668 Y189.993 E.0217
G1 X1.691 Y189.864 E.00629
G1 X1.807 Y189.579 E.01477
G1 X1.878 Y189.469 E.00629
G1 X95.588 Y95.758 E6.36345
M204 S4000
M204 S10000
G1 X95.588 Y95.758 F18000
G1 X95.901 Y96.071
M204 S2000
G1 F1800
G1 X189.744 Y2.229 E6.37241
G1 X189.78 Y2.204 E.0021
G1 X189.984 Y2.12 E.01059
G1 X190.027 Y2.111 E.00211
G1 X190.413 Y2.111 E.01853
G1 X190.456 Y2.12 E.00211
G1 X190.659 Y2.204 E.01055
G1 X190.696 Y2.229 E.00214
G1 X220.774 Y32.306 E2.04242
G1 X220.798 Y32.343 E.00212
G1 X220.882 Y32.546 E.01055
G1 X220.891 Y32.589 E.00211
G1 X220.891 Y32.976 E.01858
G1 X220.882 Y33.018 E.00206
G1 X220.798 Y33.222 E.01059
G1 X220.774 Y33.259 E.00212
G1 X33.259 Y220.773 E12.73325
G1 X33.223 Y220.797 E.00208
M73 P0 R193
G1 X33.019 Y220.881 E.01059
G1 X32.976 Y220.89 E.00211
G1 X32.59 Y220.89 E.01853
G1 X32.547 Y220.881 E.00211
G1 X32.344 Y220.797 E.01055
G1 X32.307 Y220.773 E.00212
G1 X2.229 Y190.695 E2.04246
G1 X2.205 Y190.658 E.00212
G1 X2.121 Y190.455 E.01055
G1 X2.112 Y190.412 E.00211
G1 X2.112 Y190.026 E.01853
G1 X2.121 Y189.983 E.00211
G1 X2.205 Y189.779 E.01059
G1 X2.229 Y189.743 E.00208
G1 X95.859 Y96.113 E6.35798
M204 S4000
M204 S10000
G1 X95.859 Y96.113 F18000
G1 X96.173 Y96.427
M204 S2000
G1 F1800
G1 X190.011 Y2.589 E6.37211
G1 X190.093 Y2.556 E.00424
G1 X190.347 Y2.556 E.0122
G1 X190.428 Y2.589 E.0042
G1 X220.413 Y32.574 E2.03614
G1 X220.447 Y32.655 E.00422
G1 X220.447 Y32.91 E.01224
G1 X220.413 Y32.991 E.00422
G1 X32.992 Y220.412 E12.7269
G1 X32.91 Y220.446 E.00426
G1 X32.656 Y220.446 E.0122
G1 X32.575 Y220.412 E.00422
G1 X2.59 Y190.427 E2.03614
G1 X2.556 Y190.346 E.00422
G1 X2.556 Y190.092 E.0122
G1 X2.59 Y190.01 E.00426
G1 X96.13 Y96.47 E6.35187
M204 S4000
; printing object Top_bar.stl id:0 copy 0
EXCLUDE_OBJECT_START NAME=Top_bar_stl_id_0_copy_0
G1 E-.7 F2400
M204 S10000
G1 X96.13 Y96.47 F18000
G1 X217.786 Y32.782
G1 E.7 F2400
M204 S2000
;TYPE:Perimeter
;WIDTH:0.499999
G1 F1800
G1 X32.783 Y217.786 E12.56272
G1 X5.217 Y190.219 E1.87191
G1 X190.22 Y5.216 E12.56269
G1 X204.003 Y18.999 E.93594
G1 X217.744 Y32.74 E.93309
M204 S4000
M204 S10000
G1 X218.415 Y32.782 F18000
M204 S2000
G1 F1800
G1 X32.783 Y218.414 E12.6054
G1 X4.588 Y190.219 E1.91459
G1 X190.22 Y4.588 E12.60537
G1 X204.317 Y18.685 E.95726
M73 P1 R192
G1 X218.372 Y32.74 E.95441
M204 S4000
M204 S10000
G1 X218.372 Y32.74 F18000
G1 X219.043 Y32.782
M204 S2000
G1 F1800
G1 X32.783 Y219.042 E12.64805
G1 X3.96 Y190.219 E1.95724
G1 X190.22 Y3.959 E12.64805
G1 X204.631 Y18.371 E.97862
G1 X219 Y32.74 E.97573
M204 S4000
M204 S10000
G1 X219 Y32.74 F18000
G1 X219.671 Y32.782
M204 S2000
;TYPE:External perimeter
G1 F1800
G1 X32.783 Y219.67 E12.69069
G1 X3.332 Y190.219 E1.99988
G1 X190.22 Y3.331 E12.69069
G1 X204.945 Y18.057 E.99994
G1 X219.629 Y32.74 E.99709
M204 S4000
G1 X219.391 Y33.062 F18000
M204 S10000
G1 X217.456 Y32.924
M204 S2000
;TYPE:Solid infill
;WIDTH:0.500373
G1 F1800
G1 X190.078 Y5.546 E1.86068
M204 S4000
M204 S10000
G1 X190.078 Y5.546 F18000
G1 X189.764 Y5.86
M204 S2000
G1 F1800
G1 X217.142 Y33.238 E1.86068
M204 S4000
M204 S10000
G1 X217.142 Y33.238 F18000
G1 X216.828 Y33.553
M204 S2000
G1 F1800
G1 X189.449 Y6.174 E1.86075
M204 S4000
M204 S10000
G1 X189.449 Y6.174 F18000
G1 X189.135 Y6.489
M204 S2000
G1 F1800
G1 X216.513 Y33.867 E1.86068
M204 S4000
M204 S10000
G1 X216.513 Y33.867 F18000
G1 X216.199 Y34.181
M204 S2000
G1 F1800
G1 X188.821 Y6.803 E1.86068
M204 S4000
M204 S10000
G1 X188.821 Y6.803 F18000
G1 X188.506 Y7.118
M204 S2000
G1 F1800
G1 X215.885 Y34.496 E1.86071
M204 S4000
M204 S10000
G1 X215.885 Y34.496 F18000
G1 X215.57 Y34.81
M204 S2000
G1 F1800
G1 X188.192 Y7.432 E1.86068
M204 S4000
M204 S10000
G1 X187.878 Y7.746 F18000
M204 S2000
G1 F1800
G1 X215.256 Y35.125 E1.86071
M204 S4000
M204 S10000
G1 X215.256 Y35.125 F18000
G1 X214.942 Y35.439
M204 S2000
G1 F1800
G1 X187.563 Y8.061 E1.86071
M204 S4000
M204 S10000
G1 X187.563 Y8.061 F18000
M73 P1 R191
G1 X187.249 Y8.375
M204 S2000
G1 F1800
G1 X214.627 Y35.753 E1.86068
M204 S4000
M204 S10000
G1 X214.627 Y35.753 F18000
G1 X214.313 Y36.068
M204 S2000
G1 F1800
G1 X186.935 Y8.689 E1.86071
M204 S4000
M204 S10000
G1 X186.935 Y8.689 F18000
G1 X186.62 Y9.004
M204 S2000
G1 F1800
G1 X213.998 Y36.382 E1.86068
M204 S4000
M204 S10000
G1 X213.998 Y36.382 F18000
G1 X213.684 Y36.696
M204 S2000
G1 F1800
G1 X186.306 Y9.318 E1.86068
M204 S4000
M204 S10000
G1 X186.306 Y9.318 F18000
G1 X185.991 Y9.632
M204 S2000
G1 F1800
G1 X213.37 Y37.011 E1.86075
M204 S4000
M204 S10000
G1 X213.37 Y37.011 F18000
G1 X213.055 Y37.325
M204 S2000
G1 F1800
G1 X185.677 Y9.947 E1.86068
M204 S4000
M204 S10000
G1 X185.677 Y9.947 F18000
G1 X185.363 Y10.261
M204 S2000
G1 F1800
G1 X212.741 Y37.639 E1.86068
M204 S4000
M204 S10000
G1 X212.741 Y37.639 F18000
G1 X212.427 Y37.954
M204 S2000
G1 F1800
G1 X185.048 Y10.576 E1.86071
M204 S4000
M204 S10000
G1 X185.048 Y10.576 F18000
G1 X184.734 Y10.89
M204 S2000
G1 F1800
G1 X212.112 Y38.268 E1.86068
M204 S4000
M204 S10000
G1 X212.112 Y38.268 F18000
G1 X211.798 Y38.583
M204 S2000
G1 F1800
G1 X184.42 Y11.204 E1.86071
M204 S4000
M204 S10000
G1 X184.42 Y11.204 F18000
G1 X184.105 Y11.519
M204 S2000
G1 F1800
G1 X211.484 Y38.897 E1.86071
M204 S4000
M204 S10000
G1 X211.484 Y38.897 F18000
G1 X211.169 Y39.211
M204 S2000
G1 F1800
G1 X183.791 Y11.833 E1.86068
M204 S4000
M204 S10000
G1 X183.477 Y12.147 F18000
M204 S2000
G1 F1800
G1 X210.855 Y39.526 E1.86071
M204 S4000
M204 S10000
G1 X210.855 Y39.526 F18000
G1 X210.54 Y39.84
M204 S2000
G1 F1800
G1 X183.162 Y12.462 E1.86068
M204 S4000
M204 S10000
G1 X183.162 Y12.462 F18000
G1 X182.848 Y12.776
M204 S2000
G1 F1800
G1 X210.226 Y40.154 E1.86068
M204 S4000
M204 S10000
G1 X210.226 Y40.154 F18000
G1 X209.912 Y40.469
M204 S2000
G1 F1800
G1 X182.533 Y13.09 E1.86075
M204 S4000
M204 S10000
G1 X182.533 Y13.09 F18000
G1 X182.219 Y13.405
M204 S2000
G1 F1800
G1 X209.597 Y40.783 E1.86068
M204 S4000
M204 S10000
G1 X209.597 Y40.783 F18000
G1 X209.283 Y41.097
M204 S2000
G1 F1800
G1 X181.905 Y13.719 E1.86068
M204 S4000
M204 S10000
G1 X181.905 Y13.719 F18000
G1 X181.59 Y14.034
M204 S2000
G1 F1800
G1 X208.969 Y41.412 E1.86071
M204 S4000
M204 S10000
G1 X208.969 Y41.412 F18000
G1 X208.654 Y41.726
M204 S2000
G1 F1800
G1 X181.276 Y14.348 E1.86068
M204 S4000
M204 S10000
G1 X180.962 Y14.662 F18000
M204 S2000
G1 F1800
G1 X208.34 Y42.041 E1.86071
M204 S4000
M204 S10000
G1 X208.34 Y42.041 F18000
G1 X208.026 Y42.355
M204 S2000
G1 F1800
G1 X180.647 Y14.977 E1.86071
M204 S4000
M204 S10000
G1 X180.647 Y14.977 F18000
G1 X180.333 Y15.291
M204 S2000
G1 F1800
G1 X207.711 Y42.669 E1.86068
M204 S4000
M204 S10000
G1 X207.711 Y42.669 F18000
G1 X207.397 Y42.984
M204 S2000
G1 F1800
G1 X180.019 Y15.605 E1.86071
M204 S4000
M204 S10000
G1 X180.019 Y15.605 F18000
G1 X179.704 Y15.92
M204 S2000
G1 F1800
G1 X207.082 Y43.298 E1.86068
M204 S4000
M204 S10000
G1 X207.082 Y43.298 F18000
G1 X206.768 Y43.612
M204 S2000
G1 F1800
G1 X179.39 Y16.234 E1.86068
M204 S4000
M204 S10000
G1 X179.39 Y16.234 F18000
G1 X179.075 Y16.548
M204 S2000
G1 F1800
G1 X206.454 Y43.927 E1.86075
M204 S4000
M204 S10000
G1 X206.454 Y43.927 F18000
G1 X206.139 Y44.241
M204 S2000
G1 F1800
G1 X178.761 Y16.863 E1.86068
M204 S4000
M204 S10000
G1 X178.761 Y16.863 F18000
G1 X178.447 Y17.177
M204 S2000
G1 F1800
G1 X205.825 Y44.555 E1.86068
M204 S4000
M204 S10000
G1 X205.825 Y44.555 F18000
G1 X205.511 Y44.87
M204 S2000
G1 F1800
G1 X178.132 Y17.492 E1.86071
M204 S4000
M204 S10000
G1 X178.132 Y17.492 F18000
G1 X177.818 Y17.806
M204 S2000
G1 F1800
G1 X205.196 Y45.184 E1.86068
M204 S4000
M204 S10000
G1 X205.196 Y45.184 F18000
G1 X204.882 Y45.499
M204 S2000
G1 F1800
G1 X177.504 Y18.12 E1.86071
M204 S4000
M204 S10000
G1 X177.504 Y18.12 F18000
G1 X177.189 Y18.435
M204 S2000
G1 F1800
G1 X204.568 Y45.813 E1.86071
M204 S4000
M204 S10000
G1 X204.568 Y45.813 F18000
G1 X204.253 Y46.127
M204 S2000
G1 F1800
G1 X176.875 Y18.749 E1.86068
M204 S4000
M204 S10000
G1 X176.561 Y19.063 F18000
M204 S2000
G1 F1800
G1 X203.939 Y46.442 E1.86071
M204 S4000
M204 S10000
G1 X203.939 Y46.442 F18000
G1 X203.624 Y46.756
M204 S2000
G1 F1800
G1 X176.246 Y19.378 E1.86068
M204 S4000
M204 S10000
G1 X176.246 Y19.378 F18000
G1 X175.932 Y19.692
M204 S2000
G1 F1800
G1 X203.31 Y47.07 E1.86068
M204 S4000
M204 S10000
G1 X203.31 Y47.07 F18000
G1 X202.996 Y47.385
M204 S2000
G1 F1800
G1 X175.617 Y20.006 E1.86075
M204 S4000
M204 S10000
G1 X175.617 Y20.006 F18000
G1 X175.303 Y20.321
M204 S2000
G1 F1800
G1 X202.681 Y47.699 E1.86068
M204 S4000
M204 S10000
G1 X202.681 Y47.699 F18000
G1 X202.367 Y48.013
M204 S2000
G1 F1800
G1 X174.989 Y20.635 E1.86068
M204 S4000
M204 S10000
G1 X174.989 Y20.635 F18000
G1 X174.674 Y20.95
M204 S2000
G1 F1800
G1 X202.053 Y48.328 E1.86071
M204 S4000
M204 S10000
G1 X202.053 Y48.328 F18000
G1 X201.738 Y48.642
M204 S2000
G1 F1800
G1 X174.36 Y21.264 E1.86068
M204 S4000
M204 S10000
G1 X174.046 Y21.578 F18000
M204 S2000
G1 F1800
G1 X201.424 Y48.957 E1.86071
M204 S4000
M204 S10000
G1 X201.424 Y48.957 F18000
M73 P2 R191
G1 X201.11 Y49.271
M204 S2000
G1 F1800
G1 X173.731 Y21.893 E1.86071
M204 S4000
M204 S10000
G1 X173.731 Y21.893 F18000
G1 X173.417 Y22.207
M204 S2000
G1 F1800
G1 X200.795 Y49.585 E1.86068
M204 S4000
M204 S10000
G1 X200.795 Y49.585 F18000
M73 P2 R190
G1 X200.481 Y49.9
M204 S2000
G1 F1800
G1 X173.103 Y22.521 E1.86071
M204 S4000
M204 S10000
G1 X173.103 Y22.521 F18000
G1 X172.788 Y22.836
M204 S2000
G1 F1800
G1 X200.166 Y50.214 E1.86068
M204 S4000
M204 S10000
G1 X200.166 Y50.214 F18000
G1 X199.852 Y50.528
M204 S2000
G1 F1800
G1 X172.474 Y23.15 E1.86068
M204 S4000
M204 S10000
G1 X172.474 Y23.15 F18000
G1 X172.159 Y23.464
M204 S2000
G1 F1800
G1 X199.538 Y50.843 E1.86075
M204 S4000
M204 S10000
G1 X199.538 Y50.843 F18000
G1 X199.223 Y51.157
M204 S2000
G1 F1800
G1 X171.845 Y23.779 E1.86068
M204 S4000
M204 S10000
G1 X171.845 Y23.779 F18000
G1 X171.531 Y24.093
M204 S2000
G1 F1800
G1 X198.909 Y51.471 E1.86068
M204 S4000
M204 S10000
G1 X198.909 Y51.471 F18000
G1 X198.595 Y51.786
M204 S2000
G1 F1800
G1 X171.216 Y24.408 E1.86071
M204 S4000
M204 S10000
G1 X171.216 Y24.408 F18000
G1 X170.902 Y24.722
M204 S2000
G1 F1800
G1 X198.28 Y52.1 E1.86068
M204 S4000
M204 S10000
G1 X198.28 Y52.1 F18000
G1 X197.966 Y52.415
M204 S2000
G1 F1800
G1 X170.588 Y25.036 E1.86071
M204 S4000
M204 S10000
G1 X170.588 Y25.036 F18000
G1 X170.273 Y25.351
M204 S2000
G1 F1800
G1 X197.652 Y52.729 E1.86071
M204 S4000
M204 S10000
G1 X197.652 Y52.729 F18000
G1 X197.337 Y53.043
M204 S2000
G1 F1800
G1 X169.959 Y25.665 E1.86068
M204 S4000
M204 S10000
G1 X169.645 Y25.979 F18000
M204 S2000
G1 F1800
G1 X197.023 Y53.358 E1.86071
M204 S4000
M204 S10000
G1 X197.023 Y53.358 F18000
G1 X196.708 Y53.672
M204 S2000
G1 F1800
G1 X169.33 Y26.294 E1.86068
M204 S4000
M204 S10000
G1 X169.33 Y26.294 F18000
G1 X169.016 Y26.608
M204 S2000
G1 F1800
G1 X196.394 Y53.986 E1.86068
M204 S4000
M204 S10000
G1 X196.394 Y53.986 F18000
G1 X196.08 Y54.301
M204 S2000
G1 F1800
G1 X168.701 Y26.922 E1.86075
M204 S4000
M204 S10000
G1 X168.701 Y26.922 F18000
G1 X168.387 Y27.237
M204 S2000
G1 F1800
G1 X195.765 Y54.615 E1.86068
M204 S4000
M204 S10000
G1 X195.765 Y54.615 F18000
G1 X195.451 Y54.929
M204 S2000
G1 F1800
G1 X168.073 Y27.551 E1.86068
M204 S4000
M204 S10000
G1 X168.073 Y27.551 F18000
G1 X167.758 Y27.866
M204 S2000
G1 F1800
G1 X195.137 Y55.244 E1.86071
M204 S4000
M204 S10000
G1 X195.137 Y55.244 F18000
G1 X194.822 Y55.558
M204 S2000
G1 F1800
G1 X167.444 Y28.18 E1.86068
M204 S4000
M204 S10000
G1 X167.444 Y28.18 F18000
G1 X167.13 Y28.494
M204 S2000
G1 F1800
G1 X194.508 Y55.873 E1.86071
M204 S4000
M204 S10000
G1 X194.508 Y55.873 F18000
G1 X194.194 Y56.187
M204 S2000
G1 F1800
G1 X166.815 Y28.809 E1.86071
M204 S4000
M204 S10000
G1 X166.815 Y28.809 F18000
G1 X166.501 Y29.123
M204 S2000
G1 F1800
G1 X193.879 Y56.501 E1.86068
M204 S4000
M204 S10000
G1 X193.879 Y56.501 F18000
G1 X193.565 Y56.816
M204 S2000
G1 F1800
G1 X166.187 Y29.437 E1.86071
M204 S4000
M204 S10000
G1 X166.187 Y29.437 F18000
G1 X165.872 Y29.752
M204 S2000
G1 F1800
